haraldpaaske/EiT_G3/robot_arm_database.txt
Target (x, y, z) -> Joint Angles (theta1, theta2, theta3, theta4, theta5)
[-0.5, -1.05, 1.59] -> [-115.46, -39.39, 47.41, -47.41, 0.00]
[-1.41, -1.98, 0.45] -> [-125.46, -17.82, 169.87, -169.87, 0.00]
[-0.92, -0.56, -0.93] -> [-148.67, -92.07, 117.54, -117.54, 0.00]
[-1.99, 0.16, 1.6] -> [175.40, -20.87, 104.81, -104.81, 0.00]
[0.55, -1.27, -0.76] -> [-66.58, -81.42, 120.80, -120.80, 0.00]
[-1.64, 0.83, 0.36] -> [153.16, -62.88, 92.63, -92.63, 0.00]
[0.8, 1.94, 0.97] -> [67.59, -37.75, 106.14, -106.14, 0.00]
[-1.79, -0.01, 0.64] -> [-179.68, -59.85, 83.05, -83.05, 0.00]
[1.87, 0.71, 1.96] -> [20.79, -5.12, 118.49, -118.49, 0.00]
[0.67, 0.98, 0.19] -> [55.64, -96.36, 55.88, -55.88, 0.00]
[-0.6, -0.06, 1.3] -> [-174.29, -58.57, 9.95, -9.95, 0.00]
[1.41, -1.58, 1.13] -> [-48.25, -32.31, 108.35, -108.35, 0.00]
[-1.78, 0.7, 0.2] -> [158.53, -60.83, 103.74, -103.74, 0.00]
[1.24, -0.33, 0.24] -> [-14.90, -90.92, 59.43, -59.43, 0.00]
[-0.12, 0.99, 1.89] -> [96.91, -23.52, 49.46, -49.46, 0.00]
[-1.61, 1.03, 0.5] -> [147.39, -57.12, 95.09, -95.09, 0.00]
[-1.23, -1.11, 1.73] -> [-137.94, -25.28, 81.88, -81.88, 0.00]
[-0.89, 0.81, 0.22] -> [137.69, -95.11, 55.68, -55.68, 0.00]
[-0.82, 0.89, 0.21] -> [132.66, -94.93, 56.41, -56.41, 0.00]
[-0.24, 1.73, 0.19] -> [97.90, -69.43, 90.90, -90.90, 0.00]
[0.45, -0.64, 0.69] -> [-54.89, -101.78, 19.67, -19.67, 0.00]
[-1.3, -1.79, 0.17] -> [-125.99, -41.91, 137.31, -137.31, 0.00]
[0.11, 0.41, 0.13] -> [74.98, -140.46, 27.07, -27.07, 0.00]
[1.66, 0.47, -0.59] -> [15.81, -65.28, 134.77, -134.77, 0.00]
[-0.95, -0.45, 1.15] -> [-154.65, -65.56, 32.63, -32.63, 0.00]
[-0.49, -0.33, 1.57] -> [-146.04, -36.79, 18.47, -18.47, 0.00]
[1.76, -0.05, 0.36] -> [-1.63, -66.61, 86.74, -86.74, 0.00]
[-0.05, 1.26, -0.6] -> [92.27, -91.53, 100.45, -100.45, 0.00]
[1.66, 0.35, 0.63] -> [11.91, -64.12, 76.37, -76.37, 0.00]
[-1.0, 1.62, 1.92] -> [121.69, -10.38, 107.65, -107.65, 0.00]
[1.8, -1.42, 1.42] -> [-38.27, -13.35, 132.53, -132.53, 0.00]
[-0.56, 1.23, -0.88] -> [114.48, -79.10, 130.37, -130.37, 0.00]
[-0.63, -1.12, 1.7] -> [-119.36, -32.63, 57.59, -57.59, 0.00]
[-0.41, -0.74, 1.42] -> [-118.99, -50.76, 25.68, -25.68, 0.00]
[1.73, -0.87, 1.76] -> [-26.70, -16.37, 104.39, -104.39, 0.00]
[1.3, -1.25, 0.03] -> [-43.88, -67.57, 101.41, -101.41, 0.00]
[-0.35, -1.6, 0.26] -> [-102.34, -73.88, 80.88, -80.88, 0.00]
[-1.2, 0.9, 1.06] -> [143.13, -57.67, 60.08, -60.08, 0.00]
[-0.47, -1.22, -0.46] -> [-111.07, -91.28, 93.76, -93.76, 0.00]
[-0.57, 1.65, -0.38] -> [109.06, -68.71, 119.23, -119.23, 0.00]
[1.7, -0.4, 1.71] -> [-13.24, -24.04, 87.68, -87.68, 0.00]
[-0.86, -1.3, 1.16] -> [-123.49, -51.90, 64.48, -64.48, 0.00]
[0.77, 1.36, -0.92] -> [60.48, -59.80, 162.10, -162.10, 0.00]
[-1.67, 0.54, 0.05] -> [162.08, -70.02, 96.81, -96.81, 0.00]
[-1.62, -0.02, 1.74] -> [-179.29, -25.62, 79.67, -79.67, 0.00]
[-0.09, 1.56, 1.28] -> [93.30, -46.90, 65.88, -65.88, 0.00]
[-1.95, 0.28, 1.35] -> [171.83, -31.30, 97.25, -97.25, 0.00]
[0.17, -0.63, -0.83] -> [-74.90, -114.20, 92.35, -92.35, 0.00]
[0.94, 1.12, 1.38] -> [49.99, -45.08, 60.71, -60.71, 0.00]
[0.58, -1.46, 0.7] -> [-68.33, -67.47, 66.69, -66.69, 0.00]
[-1.72, 1.71, 1.51] -> [135.17, 3.45, 163.15, -163.15, 0.00]
[0.59, -0.94, 1.91] -> [-57.89, -22.77, 55.76, -55.76, 0.00]
[0.36, -0.16, 0.1] -> [-23.96, -142.40, 27.92, -27.92, 0.00]
[-1.92, 0.78, 0.67] -> [157.89, -45.99, 106.12, -106.12, 0.00]
[-0.71, -0.09, -0.47] -> [-172.78, -119.47, 69.15, -69.15, 0.00]
[0.05, 0.36, -0.06] -> [82.09, -143.00, 36.15, -36.15, 0.00]
[-0.61, 0.62, -0.75] -> [134.53, -106.93, 93.29, -93.29, 0.00]
[0.53, -1.39, 0.03] -> [-69.13, -83.47, 79.28, -79.28, 0.00]
[0.29, 0.51, 1.27] -> [60.38, -61.11, 8.36, -8.36, 0.00]
[0.02, 1.41, 0.48] -> [89.19, -80.14, 60.20, -60.20, 0.00]
[-1.93, -0.47, 1.18] -> [-166.31, -36.47, 96.71, -96.71, 0.00]
[1.85, -0.35, 1.32] -> [-10.71, -35.53, 89.64, -89.64, 0.00]
[-0.1, -1.26, -0.67] -> [-94.54, -90.02, 105.73, -105.73, 0.00]
[0.05, 1.36, 1.72] -> [87.89, -30.80, 62.64, -62.64, 0.00]
[0.55, -0.12, 0.99] -> [-12.31, -89.21, 3.61, -3.61, 0.00]
[0.39, 1.71, -0.44] -> [77.15, -67.18, 124.42, -124.42, 0.00]
[0.48, 0.09, -0.56] -> [10.62, -128.05, 69.13, -69.13, 0.00]
[-0.44, 1.25, 0.46] -> [109.39, -84.43, 55.48, -55.48, 0.00]
[0.11, -1.98, 0.33] -> [-86.82, -55.86, 105.61, -105.61, 0.00]
[-1.13, -0.54, -0.98] -> [-154.46, -80.55, 134.27, -134.27, 0.00]
[-1.98, -0.48, 1.39] -> [-166.37, -27.24, 103.84, -103.84, 0.00]
[-1.22, 0.83, 0.82] -> [145.77, -67.40, 59.11, -59.11, 0.00]
[0.71, -1.07, 1.35] -> [-56.43, -50.20, 49.10, -49.10, 0.00]
[-0.61, -1.3, 0.85] -> [-115.14, -67.81, 56.32, -56.32, 0.00]
[-1.24, -1.77, 1.55] -> [-125.01, -15.84, 119.77, -119.77, 0.00]
[1.77, 0.4, -0.07] -> [12.73, -67.08, 106.89, -106.89, 0.00]
[-0.98, -0.27, 1.55] -> [-164.60, -42.44, 38.28, -38.28, 0.00]
[0.64, -0.12, 1.86] -> [-10.62, -20.31, 33.64, -33.64, 0.00]
[0.33, -1.65, 0.35] -> [-78.69, -70.43, 81.37, -81.37, 0.00]
[1.16, -1.46, 0.25] -> [-51.53, -62.89, 98.04, -98.04, 0.00]
[-0.74, 0.34, 0.87] -> [155.32, -89.73, 18.69, -18.69, 0.00]
[-0.05, 0.59, 0.11] -> [94.84, -129.84, 33.06, -33.06, 0.00]
[0.51, 1.53, -0.12] -> [71.57, -77.74, 94.07, -94.07, 0.00]
[-0.33, -1.48, -0.52] -> [-102.57, -79.63, 110.88, -110.88, 0.00]
[1.28, -0.02, 1.38] -> [-0.90, -48.78, 49.38, -49.38, 0.00]
[-0.95, -1.41, 1.63] -> [-123.97, -28.63, 82.08, -82.08, 0.00]
[-0.07, -0.91, -0.22] -> [-94.40, -112.42, 61.57, -61.57, 0.00]
[1.54, -0.71, 0.08] -> [-24.75, -72.87, 91.23, -91.23, 0.00]
[-0.75, -0.96, 0.54] -> [-128.00, -87.04, 47.29, -47.29, 0.00]
[-0.85, -1.3, -0.37] -> [-123.18, -79.64, 103.54, -103.54, 0.00]
[0.56, -1.7, 1.44] -> [-71.77, -34.00, 84.38, -84.38, 0.00]
[1.93, 1.09, -0.06] -> [29.46, -37.47, 156.18, -156.18, 0.00]
[-1.17, 1.11, -0.16] -> [136.51, -77.71, 96.03, -96.03, 0.00]
[-0.61, -1.16, 1.7] -> [-117.74, -32.36, 59.06, -59.06, 0.00]
[-1.51, 1.58, 1.85] -> [133.70, -1.45, 134.59, -134.59, 0.00]
[-0.69, -0.21, -0.33] -> [-163.07, -121.10, 60.86, -60.86, 0.00]
[0.04, -1.28, 1.76] -> [-88.21, -29.67, 59.28, -59.28, 0.00]
[-0.31, -1.84, 1.93] -> [-99.56, -11.10, 104.83, -104.83, 0.00]
[0.77, -0.17, 0.9] -> [-12.45, -88.75, 16.96, -16.96, 0.00]
[-0.74, -1.15, -0.75] -> [-122.76, -82.62, 118.74, -118.74, 0.00]
[0.8, 1.09, -0.79] -> [53.72, -82.29, 121.30, -121.30, 0.00]
[-1.73, 0.06, 1.36] -> [178.01, -38.90, 78.70, -78.70, 0.00]
[-1.74, -1.32, 1.55] -> [-142.82, -14.69, 122.35, -122.35, 0.00]
[0.25, -0.95, 1.72] -> [-75.26, -32.72, 42.07, -42.07, 0.00]
[-0.01, -0.59, 0.98] -> [-90.97, -89.35, 5.18, -5.18, 0.00]
[1.8, 1.12, 0.41] -> [31.89, -47.31, 116.49, -116.49, 0.00]
[-1.5, 1.36, 1.08] -> [137.80, -37.99, 99.49, -99.49, 0.00]
[-1.44, -1.99, 1.39] -> [-125.89, 2.52, 166.99, -166.99, 0.00]
[-0.65, -0.17, 0.08] -> [-165.34, -125.22, 37.28, -37.28, 0.00]
[1.62, 0.46, 1.59] -> [15.85, -30.74, 79.91, -79.91, 0.00]
[0.73, 0.22, 1.49] -> [16.77, -45.55, 23.44, -23.44, 0.00]
[-0.94, -1.76, 0.64] -> [-118.11, -50.43, 99.59, -99.59, 0.00]
[0.86, -0.94, 0.55] -> [-47.54, -84.27, 50.38, -50.38, 0.00]
[0.68, 1.73, -0.11] -> [68.54, -64.48, 112.72, -112.72, 0.00]
[0.89, 1.3, -0.71] -> [55.60, -71.48, 131.72, -131.72, 0.00]
[-1.57, 0.18, 0.52] -> [173.46, -71.74, 70.31, -70.31, 0.00]
[-0.24, -0.49, 1.06] -> [-116.10, -82.32, 2.80, -2.80, 0.00]
[-1.46, -0.26, 0.65] -> [-169.90, -72.49, 61.58, -61.58, 0.00]
[-1.93, 0.15, -0.13] -> [175.56, -59.73, 121.09, -121.09, 0.00]
[0.89, -0.68, 1.15] -> [-37.38, -64.01, 36.72, -36.72, 0.00]
[0.02, 0.44, 0.48] -> [87.40, -134.53, 10.41, -10.41, 0.00]
[0.2, 1.15, 0.01] -> [80.13, -99.29, 62.03, -62.03, 0.00]
[1.03, 1.85, 1.08] -> [60.89, -33.79, 108.09, -108.09, 0.00]
[1.56, -0.73, -0.49] -> [-25.08, -68.15, 125.42, -125.42, 0.00]
[-0.28, -1.97, 1.25] -> [-98.09, -34.01, 97.65, -97.65, 0.00]
[-1.5, -0.09, -0.89] -> [-176.57, -68.32, 146.39, -146.39, 0.00]
[0.05, -1.88, 0.33] -> [-88.48, -61.17, 96.87, -96.87, 0.00]
[-0.1, -0.28, -1.06] -> [-109.65, -119.54, 104.50, -104.50, 0.00]
[-1.52, 1.85, 1.1] -> [129.41, -16.13, 142.96, -142.96, 0.00]
[-0.9, -0.42, -0.81] -> [-154.98, -99.77, 102.94, -102.94, 0.00]
[-0.98, 0.99, 0.3] -> [134.71, -84.71, 63.94, -63.94, 0.00]
[-0.27, -0.23, -0.72] -> [-139.57, -129.44, 77.82, -77.82, 0.00]
[0.67, -1.01, 1.76] -> [-56.44, -30.18, 55.46, -55.46, 0.00]
[-1.81, -0.92, 1.16] -> [-153.06, -35.29, 100.41, -100.41, 0.00]
[-0.57, 1.36, 0.72] -> [112.74, -70.72, 60.06, -60.06, 0.00]
[-1.13, 0.54, 0.63] -> [154.46, -82.70, 47.53, -47.53, 0.00]
[-0.37, -1.6, 1.56] -> [-103.02, -33.03, 76.27, -76.27, 0.00]
[-0.95, 0.97, 1.66] -> [134.40, -33.76, 60.64, -60.64, 0.00]
[-1.5, 0.11, 1.09] -> [175.81, -56.35, 60.44, -60.44, 0.00]
[-0.25, 1.1, -0.75] -> [102.80, -94.91, 104.56, -104.56, 0.00]
[-0.9, -0.44, 1.12] -> [-153.95, -68.43, 29.49, -29.49, 0.00]
[0.92, 1.37, -0.39] -> [56.12, -74.13, 111.96, -111.96, 0.00]
[0.29, 0.02, -0.88] -> [3.95, -126.69, 89.04, -89.04, 0.00]
[1.46, 0.17, -0.14] -> [6.64, -84.95, 85.70, -85.70, 0.00]
[0.05, -1.11, -0.41] -> [-87.42, -101.40, 80.72, -80.72, 0.00]
[-0.82, -1.38, 1.35] -> [-120.72, -42.85, 69.71, -69.71, 0.00]
[0.51, -0.73, 0.29] -> [-55.06, -109.94, 37.26, -37.26, 0.00]
[-0.78, -0.35, 1.98] -> [-155.83, -17.51, 47.19, -47.19, 0.00]
[0.34, 0.51, 0.56] -> [56.31, -118.36, 14.62, -14.62, 0.00]
[1.19, 1.21, 0.77] -> [45.48, -60.39, 74.65, -74.65, 0.00]
[-0.38, 0.9, 0.67] -> [112.89, -93.26, 30.80, -30.80, 0.00]
[0.82, 0.92, 1.16] -> [48.29, -60.80, 43.60, -43.60, 0.00]
[1.61, -0.94, -0.32] -> [-30.28, -62.15, 126.29, -126.29, 0.00]
[-0.59, 0.5, 1.57] -> [139.72, -40.29, 26.64, -26.64, 0.00]
[0.34, 1.0, 0.65] -> [71.22, -90.49, 35.68, -35.68, 0.00]
[-0.8, 1.24, 1.66] -> [122.83, -31.97, 67.87, -67.87, 0.00]
[-0.22, -0.92, -1.3] -> [-103.45, -74.20, 166.89, -166.89, 0.00]
[-0.39, -0.25, 1.46] -> [-147.34, -40.82, 8.77, -8.77, 0.00]
[-1.51, 0.22, 0.64] -> [171.71, -71.00, 64.54, -64.54, 0.00]
[-1.61, -1.0, 1.61] -> [-148.15, -23.96, 96.41, -96.41, 0.00]
[-1.36, -1.16, 1.4] -> [-139.54, -35.64, 83.50, -83.50, 0.00]
[0.28, 1.96, 1.45] -> [81.87, -27.27, 99.85, -99.85, 0.00]
[1.3, 0.14, 0.17] -> [6.15, -90.78, 63.25, -63.25, 0.00]
[-1.05, -0.3, -0.61] -> [-164.05, -99.57, 92.56, -92.56, 0.00]
[-1.29, -0.61, 0.33] -> [-154.69, -82.59, 65.12, -65.12, 0.00]
[-0.7, 0.45, 1.93] -> [147.26, -19.86, 43.92, -43.92, 0.00]
[0.4, -0.76, 0.32] -> [-62.24, -111.05, 34.64, -34.64, 0.00]
[0.68, -0.98, 1.28] -> [-55.24, -55.53, 42.52, -42.52, 0.00]
[0.41, 0.82, 1.11] -> [63.43, -70.94, 24.44, -24.44, 0.00]
[0.24, 0.45, 0.02] -> [61.93, -134.91, 35.20, -35.20, 0.00]
[-1.61, -1.86, 0.69] -> [-130.88, -15.40, 163.57, -163.57, 0.00]
[-0.68, -1.37, 1.16] -> [-116.40, -52.77, 62.52, -62.52, 0.00]
[-1.84, 0.93, 0.31] -> [153.19, -51.68, 113.66, -113.66, 0.00]
[1.91, 1.49, 0.67] -> [37.96, -21.25, 153.02, -153.02, 0.00]
[1.46, -0.5, 0.95] -> [-18.90, -60.39, 62.94, -62.94, 0.00]
[0.67, 1.81, 1.29] -> [69.69, -34.92, 93.08, -93.08, 0.00]
[0.35, -0.81, 2.0] -> [-66.63, -16.79, 49.27, -49.27, 0.00]
[1.79, -0.94, 0.75] -> [-27.71, -46.82, 100.46, -100.46, 0.00]
[0.39, 0.88, -0.18] -> [66.10, -110.04, 61.51, -61.51, 0.00]
[-0.1, -1.41, 1.57] -> [-94.06, -37.24, 61.60, -61.60, 0.00]
[-1.29, -0.68, 1.59] -> [-152.20, -35.52, 64.90, -64.90, 0.00]
[-0.07, -1.2, 1.88] -> [-93.34, -24.13, 59.32, -59.32, 0.00]
[0.57, 1.35, 1.81] -> [67.11, -25.11, 71.91, -71.91, 0.00]
[0.62, -1.31, 1.05] -> [-64.67, -59.66, 56.73, -56.73, 0.00]
[0.75, 1.12, 0.61] -> [56.19, -79.29, 53.69, -53.69, 0.00]
[-0.38, -0.31, -1.28] -> [-140.79, -101.50, 132.72, -132.72, 0.00]
[-1.79, -1.39, 0.63] -> [-142.17, -35.35, 127.83, -127.83, 0.00]
[-0.41, 1.46, 1.57] -> [105.69, -35.34, 68.12, -68.12, 0.00]
[0.53, 1.27, 1.08] -> [67.35, -60.62, 52.11, -52.11, 0.00]
[-0.85, -0.66, 1.92] -> [-142.17, -22.22, 54.50, -54.50, 0.00]
[0.73, 1.43, 0.02] -> [62.96, -77.73, 87.34, -87.34, 0.00]
[-1.25, 1.2, 0.43] -> [136.17, -66.75, 82.91, -82.91, 0.00]
[-0.22, 1.48, 0.62] -> [98.46, -72.79, 62.92, -62.92, 0.00]
[0.71, -1.36, 1.43] -> [-62.43, -41.21, 66.27, -66.27, 0.00]
[-1.23, -0.55, -0.04] -> [-155.91, -90.72, 73.89, -73.89, 0.00]
[-0.19, 1.34, 1.41] -> [98.07, -45.95, 54.40, -54.40, 0.00]
[1.18, 0.4, 1.89] -> [18.73, -23.42, 62.07, -62.07, 0.00]
[0.63, -1.56, -0.82] -> [-68.01, -55.66, 163.18, -163.18, 0.00]
[-0.59, -0.98, 0.7] -> [-121.05, -84.74, 39.91, -39.91, 0.00]
[0.85, -0.78, -0.49] -> [-42.54, -98.45, 87.61, -87.61, 0.00]
[0.12, -1.85, 0.51] -> [-86.29, -59.67, 90.27, -90.27, 0.00]
[-1.66, 0.25, 1.39] -> [171.44, -39.21, 75.43, -75.43, 0.00]
[-0.31, 1.22, -0.44] -> [104.26, -93.91, 89.87, -89.87, 0.00]
[0.37, -0.04, 1.83] -> [-6.17, -12.33, 23.64, -23.64, 0.00]
[-1.0, 1.86, 0.38] -> [118.26, -48.10, 116.52, -116.52, 0.00]
[-1.15, 1.04, 1.85] -> [137.88, -21.91, 78.71, -78.71, 0.00]
[-0.26, 1.21, 0.53] -> [102.13, -86.47, 48.65, -48.65, 0.00]
[-0.63, 0.93, 0.09] -> [124.11, -100.79, 56.44, -56.44, 0.00]
[-1.67, 0.53, -0.32] -> [162.39, -69.12, 115.74, -115.74, 0.00]
[-0.48, 0.17, -0.73] -> [160.50, -122.93, 81.34, -81.34, 0.00]
[0.86, 0.8, -0.85] -> [42.93, -89.84, 115.49, -115.49, 0.00]
[-0.14, -0.95, 1.43] -> [-98.38, -49.85, 32.05, -32.05, 0.00]
[-1.83, 1.07, 0.19] -> [149.69, -48.70, 124.42, -124.42, 0.00]
[1.08, 0.4, 0.32] -> [20.32, -95.80, 49.51, -49.51, 0.00]
[-1.74, -0.43, 0.57] -> [-166.12, -61.30, 84.38, -84.38, 0.00]
[1.9, -1.35, 1.83] -> [-35.39, 10.38, 161.55, -161.55, 0.00]
[0.11, -1.95, -0.3] -> [-86.77, -56.27, 134.77, -134.77, 0.00]
[-0.22, 0.01, 1.79] -> [177.40, -6.37, 18.42, -18.42, 0.00]
[0.19, 1.7, 1.22] -> [83.62, -44.91, 75.52, -75.52, 0.00]
[0.15, -1.18, -0.24] -> [-82.76, -98.66, 75.05, -75.05, 0.00]
[-0.76, -1.91, 1.99] -> [-111.70, -1.31, 125.95, -125.95, 0.00]
[-1.53, -1.15, 1.85] -> [-143.07, -13.20, 105.71, -105.71, 0.00]
[0.53, 0.71, 1.23] -> [53.26, -63.46, 23.97, -23.97, 0.00]
[0.73, -1.07, 0.5] -> [-55.70, -84.73, 52.75, -52.75, 0.00]
[-1.28, 0.95, -0.74] -> [143.42, -69.09, 136.83, -136.83, 0.00]
[1.56, -0.8, 0.95] -> [-27.15, -52.81, 77.65, -77.65, 0.00]
[1.3, -0.8, -0.1] -> [-31.61, -82.09, 87.38, -87.38, 0.00]
[-0.82, -0.0, 1.32] -> [-180.00, -57.72, 21.92, -21.92, 0.00]
[1.33, 0.13, -0.32] -> [5.58, -91.08, 87.13, -87.13, 0.00]
[0.83, 1.49, 1.72] -> [60.88, -24.61, 85.01, -85.01, 0.00]
[1.35, -0.12, -0.28] -> [-5.08, -90.35, 86.02, -86.02, 0.00]
[1.17, 1.12, 1.37] -> [43.75, -41.63, 71.00, -71.00, 0.00]
[-0.84, -1.5, 1.12] -> [-119.25, -48.30, 75.42, -75.42, 0.00]
[0.44, -0.4, 1.92] -> [-42.27, -15.56, 34.64, -34.64, 0.00]
[-0.07, 0.5, -1.13] -> [97.97, -109.05, 115.24, -115.24, 0.00]
[1.0, 0.49, 1.76] -> [26.10, -30.59, 50.19, -50.19, 0.00]
[-1.45, 1.66, 0.37] -> [131.14, -42.29, 127.32, -127.32, 0.00]
[0.19, -1.21, 0.23] -> [-81.08, -93.90, 56.51, -56.51, 0.00]
[-1.51, -0.94, 1.2] -> [-148.10, -43.42, 80.32, -80.32, 0.00]
[-0.16, 1.93, -0.41] -> [94.74, -54.66, 142.80, -142.80, 0.00]
[1.12, -1.58, 0.15] -> [-54.67, -59.84, 107.71, -107.71, 0.00]
[-0.34, -1.99, 1.02] -> [-99.70, -40.02, 98.83, -98.83, 0.00]
[-1.02, 0.55, 0.16] -> [151.67, -98.19, 55.50, -55.50, 0.00]
[0.75, -1.79, -0.35] -> [-67.27, -56.06, 137.52, -137.52, 0.00]
[0.83, -1.03, 1.46] -> [-51.14, -44.07, 53.52, -53.52, 0.00]
[-0.51, -0.97, -0.63] -> [-117.73, -99.02, 94.12, -94.12, 0.00]
[-1.48, 0.48, -0.41] -> [162.03, -79.07, 106.24, -106.24, 0.00]
[0.83, -0.95, 0.36] -> [-48.86, -89.69, 54.42, -54.42, 0.00]
[-1.31, 0.84, -0.91] -> [147.33, -61.76, 158.13, -158.13, 0.00]
[-0.85, -2.0, 1.02] -> [-113.03, -32.69, 113.57, -113.57, 0.00]
[1.62, 0.9, 0.49] -> [29.05, -60.07, 90.64, -90.64, 0.00]
[-1.87, 0.39, 0.94] -> [168.22, -46.92, 89.75, -89.75, 0.00]
[0.12, 0.9, -0.43] -> [82.41, -110.94, 73.30, -73.30, 0.00]
[-1.3, -0.42, -0.8] -> [-162.10, -81.18, 123.25, -123.25, 0.00]
[-0.75, 1.92, -0.04] -> [111.34, -52.03, 129.48, -129.48, 0.00]
[0.5, -1.84, 0.77] -> [-74.80, -51.62, 90.51, -90.51, 0.00]
[1.6, -0.41, -0.52] -> [-14.37, -71.89, 121.46, -121.46, 0.00]
[1.5, 0.74, -0.02] -> [26.26, -74.53, 93.70, -93.70, 0.00]
[0.56, -1.49, 1.84] -> [-69.40, -21.64, 81.07, -81.07, 0.00]
[0.19, 1.1, -0.42] -> [80.20, -101.05, 81.55, -81.55, 0.00]
[-1.25, -0.7, 0.52] -> [-150.75, -78.16, 60.72, -60.72, 0.00]
[1.02, -1.04, -0.99] -> [-45.56, -64.35, 158.90, -158.90, 0.00]
[-0.88, 1.18, -0.02] -> [126.71, -84.52, 80.40, -80.40, 0.00]
[-0.5, 0.34, 1.77] -> [145.78, -24.28, 27.72, -27.72, 0.00]
[0.65, 1.74, -0.66] -> [69.52, -47.19, 169.20, -169.20, 0.00]
[1.03, 1.19, 0.14] -> [49.12, -78.36, 80.59, -80.59, 0.00]
[-0.7, -1.69, 1.13] -> [-112.50, -44.10, 83.66, -83.66, 0.00]
[0.71, -0.84, 0.51] -> [-49.79, -93.40, 41.22, -41.22, 0.00]
[-1.4, -1.91, 1.48] -> [-126.24, -5.18, 146.73, -146.73, 0.00]
[-0.07, 0.51, 0.82] -> [97.82, -107.97, 2.60, -2.60, 0.00]
[-1.19, -0.06, -0.92] -> [-177.11, -86.55, 123.24, -123.24, 0.00]
[1.73, 0.04, 1.89] -> [1.32, -16.48, 92.60, -92.60, 0.00]
[-0.57, 1.09, -0.63] -> [117.61, -92.52, 100.89, -100.89, 0.00]
[1.86, 0.62, 0.03] -> [18.43, -58.79, 115.07, -115.07, 0.00]
[-0.12, -0.25, 1.65] -> [-115.64, -17.17, 11.86, -11.86, 0.00]
[0.38, 1.32, -0.23] -> [73.94, -89.63, 84.43, -84.43, 0.00]
[-0.55, 1.49, 1.38] -> [110.26, -42.03, 69.02, -69.02, 0.00]
[-0.47, 0.22, 0.08] -> [154.92, -134.43, 32.30, -32.30, 0.00]
[0.55, 1.77, -0.31] -> [72.74, -63.02, 124.47, -124.47, 0.00]
[-1.88, -0.07, 0.27] -> [-177.87, -61.83, 98.75, -98.75, 0.00]
[-0.34, 0.08, -0.12] -> [166.76, -143.01, 39.34, -39.34, 0.00]
[-0.32, -0.75, 0.36] -> [-113.11, -112.57, 31.13, -31.13, 0.00]
[1.36, -1.14, 0.24] -> [-39.97, -67.52, 91.33, -91.33, 0.00]
[0.2, 1.97, -0.44] -> [84.20, -49.07, 153.91, -153.91, 0.00]
[0.46, 1.04, 0.72] -> [66.14, -84.22, 39.22, -39.22, 0.00]
[-0.47, 0.36, -0.29] -> [142.55, -127.98, 54.73, -54.73, 0.00]
[0.96, -1.55, 1.98] -> [-58.23, -10.03, 103.43, -103.43, 0.00]
[-1.5, -0.29, -0.45] -> [-169.06, -80.07, 106.87, -106.87, 0.00]
[-1.09, -1.15, -0.74] -> [-133.47, -69.76, 135.84, -135.84, 0.00]
[-0.25, 1.04, -0.82] -> [103.52, -95.90, 107.32, -107.32, 0.00]
[-1.0, 0.14, -0.97] -> [172.03, -93.90, 117.93, -117.93, 0.00]
[1.0, -1.66, -0.04] -> [-58.93, -60.04, 116.35, -116.35, 0.00]
[-0.58, 0.28, 0.84] -> [154.23, -99.26, 9.39, -9.39, 0.00]
[-0.38, 1.45, -0.46] -> [104.69, -81.47, 105.55, -105.55, 0.00]
[1.97, -1.1, 1.72] -> [-29.18, -3.20, 138.20, -138.20, 0.00]
[1.24, -0.04, -0.09] -> [-1.85, -96.15, 70.30, -70.30, 0.00]
[-0.75, -0.33, -1.28] -> [-156.25, -86.21, 148.05, -148.05, 0.00]
[-1.39, 0.9, -0.28] -> [147.08, -74.91, 105.59, -105.59, 0.00]
[-0.21, 0.74, -0.77] -> [105.84, -110.87, 91.28, -91.28, 0.00]
[0.14, -0.88, 0.47] -> [-80.96, -105.18, 31.14, -31.14, 0.00]
[-0.12, -0.39, -1.46] -> [-107.10, -85.16, 170.84, -170.84, 0.00]
[-0.59, -1.07, 1.29] -> [-118.87, -54.44, 44.41, -44.41, 0.00]
[-0.72, -0.11, 0.48] -> [-171.31, -114.14, 22.78, -22.78, 0.00]
[-1.88, 0.68, 0.82] -> [160.11, -46.24, 97.81, -97.81, 0.00]
[-0.79, 0.78, 1.15] -> [135.36, -64.24, 36.13, -36.13, 0.00]
[0.72, 1.84, 1.02] -> [68.63, -41.86, 95.12, -95.12, 0.00]
[1.88, -1.59, 1.02] -> [-40.22, -10.68, 157.71, -157.71, 0.00]
[-0.3, -1.3, -0.07] -> [-102.99, -91.49, 74.47, -74.47, 0.00]
[-0.6, 0.31, -0.9] -> [152.68, -111.12, 98.62, -98.62, 0.00]
[-0.31, -1.93, 0.0] -> [-99.13, -59.12, 115.95, -115.95, 0.00]
[-0.54, 1.16, -0.08] -> [114.96, -94.21, 71.92, -71.92, 0.00]
[-0.2, 0.15, 1.77] -> [143.13, -9.08, 17.81, -17.81, 0.00]
[-0.61, -0.39, -1.02] -> [-147.41, -104.90, 110.76, -110.76, 0.00]
[1.55, 0.77, -0.47] -> [26.42, -68.05, 124.60, -124.60, 0.00]
[0.18, 0.48, 1.25] -> [69.44, -61.99, 4.03, -4.03, 0.00]
[1.15, 1.32, 0.73] -> [48.94, -59.30, 78.94, -78.94, 0.00]
[0.92, -0.98, -0.41] -> [-46.81, -89.98, 92.78, -92.78, 0.00]
[-0.44, 0.06, -1.3] -> [172.23, -101.96, 134.22, -134.22, 0.00]
[-1.54, -0.92, 1.72] -> [-149.15, -22.37, 91.53, -91.53, 0.00]
[-0.13, -1.93, 0.22] -> [-93.85, -59.51, 104.91, -104.91, 0.00]
[-1.66, -0.14, 0.63] -> [-175.18, -65.42, 74.21, -74.21, 0.00]
[0.85, 0.42, 1.14] -> [26.29, -68.35, 26.50, -26.50, 0.00]
[1.64, -0.29, 1.96] -> [-10.03, -14.71, 90.66, -90.66, 0.00]
[0.54, 0.47, -0.97] -> [41.04, -107.09, 105.88, -105.88, 0.00]
[0.35, -0.61, 1.25] -> [-60.15, -63.35, 14.15, -14.15, 0.00]
[-1.2, -0.23, 1.85] -> [-169.15, -25.56, 59.24, -59.24, 0.00]
[0.44, -1.92, 0.65] -> [-77.09, -51.46, 97.23, -97.23, 0.00]
[-0.98, 1.87, 0.21] -> [117.66, -49.22, 122.59, -122.59, 0.00]
[0.79, -1.07, -0.63] -> [-53.56, -87.48, 106.62, -106.62, 0.00]
[1.21, 1.86, 1.43] -> [56.95, -17.38, 123.31, -123.31, 0.00]
[-1.67, 1.66, 0.73] -> [135.17, -27.30, 138.47, -138.47, 0.00]
[1.41, 0.87, -0.47] -> [31.68, -72.55, 118.07, -118.07, 0.00]
[-0.46, -0.47, -1.27] -> [-134.38, -95.15, 137.39, -137.39, 0.00]
[1.75, -0.52, 0.74] -> [-16.55, -55.88, 84.45, -84.45, 0.00]
[1.22, -1.32, 0.03] -> [-47.25, -67.89, 100.93, -100.93, 0.00]
[0.92, -1.17, 0.29] -> [-51.82, -80.44, 70.13, -70.13, 0.00]
[1.21, 0.06, -0.66] -> [2.84, -92.84, 102.07, -102.07, 0.00]
[1.72, -1.0, 0.13] -> [-30.17, -56.93, 113.39, -113.39, 0.00]
[0.48, 1.84, 1.59] -> [75.38, -24.56, 96.40, -96.40, 0.00]
[-1.2, 0.45, -0.23] -> [159.44, -94.17, 79.31, -79.31, 0.00]
[-0.27, 0.69, 0.62] -> [111.37, -107.58, 19.15, -19.15, 0.00]
[-1.05, -0.24, 1.63] -> [-167.12, -37.72, 43.91, -43.91, 0.00]
[-0.46, 0.27, 0.13] -> [149.59, -133.40, 30.17, -30.17, 0.00]
[-0.58, -1.53, -0.62] -> [-110.76, -70.39, 128.65, -128.65, 0.00]
[-1.07, -1.88, 1.03] -> [-119.65, -32.93, 112.55, -112.55, 0.00]
[0.88, 0.51, 0.76] -> [30.09, -87.46, 31.63, -31.63, 0.00]
[-0.23, -0.01, 1.65] -> [-177.51, -14.06, 10.88, -10.88, 0.00]
[-1.8, 0.38, -0.18] -> [168.08, -65.24, 114.87, -114.87, 0.00]
[-0.24, -0.93, -0.84] -> [-104.47, -100.46, 103.96, -103.96, 0.00]
[-1.62, -0.87, 0.77] -> [-151.76, -54.55, 85.15, -85.15, 0.00]
[-0.39, -0.15, 1.76] -> [-158.96, -18.22, 21.16, -21.16, 0.00]
[-0.32, -1.47, 1.16] -> [-102.28, -53.50, 60.86, -60.86, 0.00]
[-0.92, -0.26, 1.65] -> [-164.22, -36.64, 38.30, -38.30, 0.00]
[-1.55, -0.07, 1.31] -> [-177.41, -45.94, 65.52, -65.52, 0.00]
[1.3, -0.44, 1.72] -> [-18.70, -30.66, 63.33, -63.33, 0.00]
[-0.17, 0.6, 0.63] -> [105.82, -114.22, 12.93, -12.93, 0.00]
[1.63, -0.12, 0.69] -> [-4.21, -65.16, 71.15, -71.15, 0.00]
[-0.41, 0.92, 0.2] -> [114.02, -105.31, 46.30, -46.30, 0.00]
[-1.16, -1.35, 0.39] -> [-130.67, -65.23, 87.38, -87.38, 0.00]
[0.69, -0.49, -0.03] -> [-35.38, -115.98, 49.23, -49.23, 0.00]
[-1.39, 1.21, -0.24] -> [138.96, -64.55, 118.77, -118.77, 0.00]
[-1.28, -0.77, 0.07] -> [-148.97, -82.87, 78.07, -78.07, 0.00]
[-0.55, -1.52, -0.1] -> [-109.89, -77.55, 93.37, -93.37, 0.00]
[-0.13, 1.1, 0.83] -> [96.74, -80.65, 36.16, -36.16, 0.00]
[-0.15, 1.09, 0.99] -> [97.84, -73.05, 34.93, -34.93, 0.00]
[1.13, -1.25, 0.63] -> [-47.89, -64.61, 75.56, -75.56, 0.00]
[1.67, -1.37, 0.29] -> [-39.36, -45.71, 124.97, -124.97, 0.00]
[0.64, 1.26, -0.77] -> [63.07, -79.45, 123.89, -123.89, 0.00]
[-1.05, -0.9, 0.19] -> [-139.40, -86.90, 66.92, -66.92, 0.00]
[-0.48, 1.77, -0.36] -> [105.17, -63.49, 126.15, -126.15, 0.00]
[1.62, -0.45, 1.03] -> [-15.52, -52.76, 72.43, -72.43, 0.00]
[-0.48, 1.08, -0.43] -> [113.96, -97.77, 85.31, -85.31, 0.00]
[1.4, 1.46, 0.77] -> [46.20, -46.32, 100.33, -100.33, 0.00]
[1.76, -0.06, 1.13] -> [-1.95, -46.51, 78.53, -78.53, 0.00]
[-0.44, -1.19, 1.55] -> [-110.29, -40.37, 52.39, -52.39, 0.00]
[1.35, 0.31, -0.55] -> [12.93, -86.09, 104.25, -104.25, 0.00]
[0.07, -0.85, -0.87] -> [-85.29, -104.44, 102.09, -102.09, 0.00]
[0.74, -1.83, 1.86] -> [-67.98, -10.71, 111.50, -111.50, 0.00]
[-1.44, -1.27, 0.92] -> [-138.59, -47.08, 90.61, -90.61, 0.00]
[-0.72, -0.8, 0.05] -> [-131.99, -103.54, 55.78, -55.78, 0.00]
[-0.7, 0.34, -0.21] -> [154.09, -119.26, 55.98, -55.98, 0.00]
[-0.69, -0.78, 0.19] -> [-131.50, -103.69, 48.37, -48.37, 0.00]
[0.55, -0.71, 1.21] -> [-52.24, -64.65, 24.38, -24.38, 0.00]
[0.7, 1.42, 1.16] -> [63.76, -51.16, 66.13, -66.13, 0.00]
[0.28, 1.2, -0.53] -> [76.87, -94.08, 94.15, -94.15, 0.00]
[1.49, -0.21, 0.1] -> [-8.02, -82.08, 77.61, -77.61, 0.00]
[1.01, 1.08, -0.34] -> [46.92, -83.79, 96.79, -96.79, 0.00]
[-0.71, 1.29, 0.67] -> [118.83, -72.33, 60.60, -60.60, 0.00]
[-1.35, 0.11, 1.24] -> [175.34, -53.99, 51.93, -51.93, 0.00]
[-1.38, 1.4, -0.35] -> [134.59, -54.03, 140.90, -140.90, 0.00]
[1.47, -0.26, 1.31] -> [-10.03, -47.45, 61.64, -61.64, 0.00]
[0.76, 1.89, 1.16] -> [68.09, -35.00, 101.01, -101.01, 0.00]
[0.72, -1.39, 2.0] -> [-62.62, -14.68, 85.50, -85.50, 0.00]
[1.5, 0.37, -0.23] -> [13.86, -81.01, 95.02, -95.02, 0.00]
[0.75, -0.79, 1.2] -> [-46.49, -61.91, 35.37, -35.37, 0.00]
[-0.27, -1.91, 1.63] -> [-98.05, -22.04, 99.75, -99.75, 0.00]
[1.86, 0.0, 0.8] -> [0.00, -52.87, 86.53, -86.53, 0.00]
[0.76, 0.81, 0.11] -> [46.82, -101.21, 54.99, -54.99, 0.00]
[-1.2, 1.1, -0.58] -> [137.49, -71.98, 124.33, -124.33, 0.00]
[-1.4, 1.03, 1.76] -> [143.66, -22.08, 88.61, -88.61, 0.00]
[-1.78, 1.57, 0.26] -> [138.59, -24.07, 166.50, -166.50, 0.00]
[-0.28, 0.96, 0.44] -> [106.26, -100.40, 37.70, -37.70, 0.00]
[-0.63, 1.33, 0.63] -> [115.35, -73.53, 61.16, -61.16, 0.00]
[-1.19, 1.28, -0.2] -> [132.91, -70.38, 108.19, -108.19, 0.00]
[0.77, -1.0, -0.86] -> [-52.40, -84.93, 121.83, -121.83, 0.00]
[0.94, -0.44, -0.63] -> [-25.08, -101.77, 91.48, -91.48, 0.00]
[0.01, 0.79, 1.72] -> [89.27, -31.13, 33.05, -33.05, 0.00]
[0.06, 0.63, 1.98] -> [84.56, -13.38, 38.94, -38.94, 0.00]
[0.66, -1.35, -0.83] -> [-63.95, -71.55, 138.12, -138.12, 0.00]
[0.6, 0.95, 1.83] -> [57.72, -26.90, 53.29, -53.29, 0.00]
[0.25, 1.5, 1.15] -> [80.54, -53.43, 61.87, -61.87, 0.00]
[-1.38, 0.35, 1.9] -> [165.77, -21.39, 72.62, -72.62, 0.00]
[0.99, -1.74, 0.27] -> [-60.36, -55.40, 109.26, -109.26, 0.00]
[1.08, -1.52, 1.07] -> [-54.61, -44.77, 86.15, -86.15, 0.00]
[-0.85, 0.39, 0.31] -> [155.35, -107.08, 38.67, -38.67, 0.00]
[-0.97, 0.99, 0.91] -> [134.42, -67.33, 52.78, -52.78, 0.00]
[1.38, -0.69, -0.6] -> [-26.57, -76.57, 118.94, -118.94, 0.00]
[-0.92, -0.57, 0.87] -> [-148.22, -79.69, 34.32, -34.32, 0.00]
[1.92, 0.17, 1.54] -> [5.06, -25.68, 97.33, -97.33, 0.00]
[-1.43, -0.7, 1.31] -> [-153.92, -44.86, 68.25, -68.25, 0.00]
[1.99, -1.08, 0.19] -> [-28.49, -37.44, 144.48, -144.48, 0.00]
[-1.76, -1.21, 0.65] -> [-145.49, -42.99, 112.64, -112.64, 0.00]
[-1.93, 0.13, 0.17] -> [176.15, -59.86, 106.73, -106.73, 0.00]
[-0.36, 1.08, 0.79] -> [108.43, -81.25, 38.39, -38.39, 0.00]
[1.02, -1.32, 1.9] -> [-52.31, -17.41, 88.49, -88.49, 0.00]
[-0.88, -0.47, -0.14] -> [-151.89, -108.32, 60.99, -60.99, 0.00]
[-1.72, 1.01, -0.43] -> [149.58, -47.91, 155.45, -155.45, 0.00]
[0.3, 1.21, -0.36] -> [76.08, -95.23, 84.51, -84.51, 0.00]
[-0.28, -0.12, 0.31] -> [-156.80, -148.88, 14.61, -14.61, 0.00]
[0.32, 1.38, -0.76] -> [76.94, -79.57, 123.20, -123.20, 0.00]
[1.05, -0.54, -0.32] -> [-27.22, -98.73, 78.92, -78.92, 0.00]
[-1.26, -1.16, 1.88] -> [-137.37, -17.35, 90.92, -90.92, 0.00]
[-0.21, -0.46, -0.53] -> [-114.54, -127.95, 67.52, -67.52, 0.00]
[-0.85, -0.58, -1.21] -> [-145.69, -79.36, 151.35, -151.35, 0.00]
[1.03, -1.67, 0.13] -> [-58.34, -58.51, 110.81, -110.81, 0.00]
[-0.61, -0.01, -1.26] -> [-179.06, -97.90, 133.98, -133.98, 0.00]
[-0.18, -1.17, -0.88] -> [-98.75, -88.39, 118.82, -118.82, 0.00]
[0.13, 1.28, -1.13] -> [84.20, -65.04, 167.66, -167.66, 0.00]
[1.55, 0.61, 0.14] -> [21.48, -73.89, 86.84, -86.84, 0.00]
[-1.76, -0.68, -0.3] -> [-158.88, -60.98, 127.18, -127.18, 0.00]
[-1.4, -1.48, 1.69] -> [-133.41, -15.65, 111.27, -111.27, 0.00]
[-1.55, 1.36, 1.6] -> [138.74, -18.31, 110.93, -110.93, 0.00]
[0.73, -1.03, -0.41] -> [-54.67, -94.03, 88.26, -88.26, 0.00]
[0.1, -1.86, 1.17] -> [-86.92, -41.53, 86.50, -86.50, 0.00]
[0.83, -0.38, 0.63] -> [-24.60, -98.03, 28.07, -28.07, 0.00]
[1.76, 1.5, 1.88] -> [40.44, 11.63, 161.60, -161.60, 0.00]
[-1.45, 1.04, -0.53] -> [144.35, -62.90, 135.42, -135.42, 0.00]
[1.16, -0.41, -0.41] -> [-19.47, -95.61, 86.57, -86.57, 0.00]
[-0.92, -0.15, 0.8] -> [-170.74, -89.01, 26.20, -26.20, 0.00]
[1.74, -0.61, 0.07] -> [-19.32, -65.27, 102.99, -102.99, 0.00]
[1.77, 0.21, 0.3] -> [6.77, -66.41, 90.06, -90.06, 0.00]
[1.15, -0.76, -0.59] -> [-33.46, -85.74, 106.67, -106.67, 0.00]
[1.32, 0.31, -0.15] -> [13.22, -90.59, 79.43, -79.43, 0.00]
[1.75, -0.57, 1.82] -> [-18.04, -16.75, 98.48, -98.48, 0.00]
[-1.99, -0.03, 1.02] -> [-179.14, -41.25, 96.35, -96.35, 0.00]
[0.08, 0.62, -0.23] -> [82.65, -126.96, 52.19, -52.19, 0.00]
[0.51, -0.27, 0.41] -> [-27.90, -126.27, 18.72, -18.72, 0.00]
[1.02, -0.05, 0.61] -> [-2.81, -93.65, 34.50, -34.50, 0.00]
[1.32, -1.17, 0.86] -> [-41.55, -55.14, 78.80, -78.80, 0.00]
[-1.81, 0.55, 0.75] -> [163.10, -52.77, 89.51, -89.51, 0.00]
[0.88, 0.32, -0.17] -> [19.98, -111.38, 59.91, -59.91, 0.00]
[0.32, 0.52, 0.05] -> [58.39, -128.93, 36.68, -36.68, 0.00]
[-0.69, 1.53, -0.26] -> [114.27, -73.83, 106.14, -106.14, 0.00]
[-1.52, -1.04, -0.63] -> [-145.62, -53.07, 156.89, -156.89, 0.00]
[-0.91, 0.39, -1.24] -> [156.80, -79.12, 154.08, -154.08, 0.00]
[-0.65, 0.99, 0.59] -> [123.29, -86.97, 44.25, -44.25, 0.00]
[-0.57, -0.24, 0.28] -> [-157.17, -126.36, 25.96, -25.96, 0.00]
[-0.3, -0.44, 0.12] -> [-124.29, -133.49, 30.65, -30.65, 0.00]
[0.24, 1.67, -0.72] -> [81.82, -62.87, 145.36, -145.36, 0.00]
[-0.4, 1.1, 0.1] -> [109.98, -98.33, 58.45, -58.45, 0.00]
[-1.4, -0.93, 1.41] -> [-146.40, -38.34, 75.91, -75.91, 0.00]
[0.78, -0.9, -0.94] -> [-49.09, -85.81, 125.30, -125.30, 0.00]
[-0.14, -0.69, -0.79] -> [-101.47, -113.15, 90.75, -90.75, 0.00]
[0.26, 0.72, -1.27] -> [70.14, -89.96, 142.81, -142.81, 0.00]
[-0.77, -1.11, 0.6] -> [-124.75, -79.46, 54.06, -54.06, 0.00]
[1.12, 1.23, 0.86] -> [47.68, -59.03, 71.56, -71.56, 0.00]
[1.47, -0.68, 1.7] -> [-24.82, -27.41, 78.43, -78.43, 0.00]
[-1.01, 0.8, -1.09] -> [141.62, -70.49, 155.71, -155.71, 0.00]
[-0.12, 1.96, 1.1] -> [93.50, -39.94, 94.30, -94.30, 0.00]
[1.99, 0.37, 1.86] -> [10.53, -8.81, 116.34, -116.34, 0.00]
[-1.56, 0.57, -0.1] -> [159.93, -75.27, 96.50, -96.50, 0.00]
[-0.11, -1.48, 1.43] -> [-94.25, -42.34, 63.01, -63.01, 0.00]
[-0.8, -0.09, -1.24] -> [-173.58, -90.16, 140.15, -140.15, 0.00]
[1.76, -0.06, 0.6] -> [-1.95, -62.03, 81.53, -81.53, 0.00]
[-0.51, 1.73, 0.19] -> [106.43, -66.57, 95.22, -95.22, 0.00]
[0.84, -0.12, 1.15] -> [-8.13, -69.56, 20.84, -20.84, 0.00]
[-0.79, -0.65, 1.78] -> [-140.55, -29.52, 46.31, -46.31, 0.00]
[-0.35, 0.91, 1.28] -> [111.04, -59.07, 29.81, -29.81, 0.00]
[-1.7, 0.26, -0.39] -> [171.30, -70.12, 117.66, -117.66, 0.00]
[-0.04, -1.02, 1.68] -> [-92.25, -35.03, 42.60, -42.60, 0.00]
[-0.59, -0.45, -1.24] -> [-142.67, -93.26, 136.82, -136.82, 0.00]
[-0.15, 0.02, -1.14] -> [172.41, -120.60, 110.71, -110.71, 0.00]
[1.42, -1.64, -0.15] -> [-49.11, -40.07, 155.73, -155.73, 0.00]
[-0.8, 0.27, 1.5] -> [161.35, -45.44, 27.85, -27.85, 0.00]
[1.37, -0.03, 1.07] -> [-1.25, -61.22, 51.71, -51.71, 0.00]
[-0.13, -0.9, 1.55] -> [-98.22, -42.49, 32.68, -32.68, 0.00]
[0.24, -0.73, -0.85] -> [-71.80, -108.71, 97.46, -97.46, 0.00]
[0.05, 1.8, 1.62] -> [88.41, -26.40, 89.21, -89.21, 0.00]
[-1.53, 0.03, -0.19] -> [178.88, -81.88, 91.99, -91.99, 0.00]
[-0.74, 1.51, 1.67] -> [116.11, -27.35, 81.85, -81.85, 0.00]
[1.25, -0.02, 1.88] -> [-0.92, -23.90, 61.92, -61.92, 0.00]
[-0.63, -0.18, -0.54] -> [-164.05, -121.02, 71.86, -71.86, 0.00]
[1.74, 0.19, 0.0] -> [6.23, -70.46, 98.56, -98.56, 0.00]
[-0.08, -1.08, 1.89] -> [-94.24, -23.79, 53.60, -53.60, 0.00]
[0.97, 1.98, 1.97] -> [63.90, 6.37, 145.26, -145.26, 0.00]
[1.15, -1.44, 0.71] -> [-51.39, -55.88, 86.12, -86.12, 0.00]
[-1.31, 0.38, -0.52] -> [163.82, -87.64, 100.91, -100.91, 0.00]
[1.69, 0.61, -0.15] -> [19.85, -67.87, 109.50, -109.50, 0.00]
[-0.32, 1.22, -0.59] -> [104.70, -91.69, 99.77, -99.77, 0.00]
[-1.85, 0.36, -0.31] -> [168.99, -60.95, 127.70, -127.70, 0.00]
[-0.39, -0.73, 1.93] -> [-118.11, -19.80, 43.74, -43.74, 0.00]
[0.06, 0.57, 0.17] -> [83.99, -130.64, 29.47, -29.47, 0.00]
[-1.93, -1.06, 0.89] -> [-151.22, -34.39, 116.93, -116.93, 0.00]
[-1.6, -0.35, -0.61] -> [-167.66, -70.57, 127.88, -127.88, 0.00]
[-0.77, 0.2, 1.72] -> [165.44, -31.21, 33.30, -33.30, 0.00]
[-0.59, -0.66, -0.32] -> [-131.79, -113.15, 66.01, -66.01, 0.00]
[-0.82, 0.18, -0.31] -> [167.62, -115.48, 63.74, -63.74, 0.00]
[0.35, -1.55, 0.76] -> [-77.28, -64.98, 67.22, -67.22, 0.00]
[-1.82, 0.66, 0.34] -> [160.07, -58.23, 101.19, -101.19, 0.00]
[-1.14, 1.01, -0.16] -> [138.46, -82.28, 90.02, -90.02, 0.00]
[-0.53, -1.35, -0.97] -> [-111.43, -66.95, 153.38, -153.38, 0.00]
[1.79, -0.34, 0.91] -> [-10.75, -51.37, 82.92, -82.92, 0.00]
[0.15, 1.62, 1.84] -> [84.71, -20.97, 83.44, -83.44, 0.00]
[-0.86, -0.96, -0.04] -> [-131.86, -93.59, 70.63, -70.63, 0.00]
[-0.78, 1.56, -0.73] -> [116.57, -56.72, 156.09, -156.09, 0.00]
[1.32, -0.52, -0.56] -> [-21.50, -84.17, 107.09, -107.09, 0.00]
[1.88, 0.4, 0.96] -> [12.01, -45.86, 90.67, -90.67, 0.00]
[1.46, -1.6, 1.32] -> [-47.62, -23.95, 115.29, -115.29, 0.00]
[-0.6, 1.29, 1.43] -> [114.94, -43.64, 59.09, -59.09, 0.00]
[-1.03, -0.58, 1.09] -> [-150.62, -65.60, 40.09, -40.09, 0.00]
[1.46, 1.59, 1.25] -> [47.44, -26.62, 113.55, -113.55, 0.00]
[-0.23, -0.07, 1.85] -> [-163.07, -4.74, 22.10, -22.10, 0.00]
[1.64, 0.59, 1.84] -> [19.79, -18.43, 91.68, -91.68, 0.00]
[1.19, 1.72, 1.48] -> [55.32, -21.69, 110.76, -110.76, 0.00]
[1.25, 0.38, -0.29] -> [16.91, -92.72, 83.83, -83.83, 0.00]
[-1.22, -1.54, 0.41] -> [-128.39, -55.85, 101.73, -101.73, 0.00]
[0.21, -0.22, -1.0] -> [-46.33, -121.76, 99.19, -99.19, 0.00]
[-0.82, -1.94, -0.1] -> [-112.91, -47.85, 139.46, -139.46, 0.00]
[-1.48, 0.16, 0.58] -> [173.83, -74.20, 63.12, -63.12, 0.00]
[0.24, -1.11, -0.79] -> [-77.80, -93.52, 108.18, -108.18, 0.00]
[0.11, -0.48, 0.01] -> [-77.09, -135.92, 35.26, -35.26, 0.00]
[0.4, -1.07, 1.76] -> [-69.50, -30.51, 51.70, -51.70, 0.00]
[0.88, 0.44, 0.93] -> [26.57, -80.00, 28.15, -28.15, 0.00]
[-0.4, -0.39, -0.8] -> [-135.73, -118.94, 87.63, -87.63, 0.00]
[-1.71, -1.67, 0.5] -> [-135.68, -25.66, 152.32, -152.32, 0.00]
[1.24, -1.49, 1.53] -> [-50.23, -25.70, 98.02, -98.02, 0.00]
[-0.13, 1.39, -0.93] -> [95.34, -73.90, 140.44, -140.44, 0.00]
[1.3, -1.53, 1.75] -> [-49.65, -14.27, 110.49, -110.49, 0.00]
[-0.48, -0.93, 0.66] -> [-117.30, -90.53, 34.94, -34.94, 0.00]
[-0.69, 0.39, 0.91] -> [150.52, -87.92, 17.12, -17.12, 0.00]
[-0.38, 1.34, -0.57] -> [105.83, -85.35, 106.14, -106.14, 0.00]
[-0.79, 1.71, -0.47] -> [114.80, -57.11, 141.71, -141.71, 0.00]
[0.77, 0.12, 0.44] -> [8.86, -112.41, 26.57, -26.57, 0.00]
[0.28, -0.69, 0.98] -> [-67.91, -84.50, 14.07, -14.07, 0.00]
[0.24, 1.78, 1.34] -> [82.32, -37.68, 83.21, -83.21, 0.00]
[0.47, 0.46, 1.87] -> [44.38, -19.91, 34.35, -34.35, 0.00]
[-1.34, 0.61, -0.73] -> [155.52, -77.24, 124.71, -124.71, 0.00]
[-1.51, -1.64, 1.12] -> [-132.64, -26.89, 120.05, -120.05, 0.00]
[-0.82, -1.7, -0.19] -> [-115.75, -62.28, 119.91, -119.91, 0.00]
[-0.24, 1.62, -0.01] -> [98.43, -76.26, 90.80, -90.80, 0.00]
[-0.38, 1.15, -0.26] -> [108.29, -97.53, 77.20, -77.20, 0.00]
[-1.63, -0.66, 1.71] -> [-157.96, -23.73, 88.57, -88.57, 0.00]
[-1.11, -1.5, -0.13] -> [-126.50, -63.98, 114.44, -114.44, 0.00]
[1.67, -1.33, 0.76] -> [-38.53, -40.91, 111.01, -111.01, 0.00]
[-1.16, -0.22, -1.09] -> [-169.26, -78.69, 143.69, -143.69, 0.00]
[0.61, 0.32, -0.46] -> [27.68, -120.88, 67.72, -67.72, 0.00]
[0.62, -0.94, -1.2] -> [-56.59, -72.59, 160.61, -160.61, 0.00]
[-0.05, 0.9, -0.36] -> [93.18, -112.01, 68.92, -68.92, 0.00]
[1.26, 1.06, -0.75] -> [40.07, -64.68, 144.14, -144.14, 0.00]
[1.38, -0.32, -0.65] -> [-13.06, -82.49, 113.72, -113.72, 0.00]
[-0.38, 1.21, 1.64] -> [107.43, -35.82, 54.81, -54.81, 0.00]
[0.19, -0.51, 1.64] -> [-69.57, -30.59, 19.58, -19.58, 0.00]
[1.32, -1.13, -0.35] -> [-40.57, -69.61, 116.47, -116.47, 0.00]
[1.38, 0.32, 0.91] -> [13.06, -66.27, 54.74, -54.74, 0.00]
[0.34, -1.91, 0.28] -> [-79.91, -58.67, 103.38, -103.38, 0.00]
[0.05, -1.81, 1.18] -> [-88.42, -43.04, 82.57, -82.57, 0.00]
[0.12, 1.26, -0.64] -> [84.56, -90.54, 103.59, -103.59, 0.00]
[-0.16, 1.2, -1.18] -> [97.59, -65.54, 170.82, -170.82, 0.00]
[1.38, -0.48, -0.29] -> [-19.18, -85.01, 92.86, -92.86, 0.00]
[0.02, 1.84, 0.79] -> [89.38, -53.98, 85.07, -85.07, 0.00]
[-1.84, 0.99, 1.43] -> [151.72, -23.62, 109.49, -109.49, 0.00]
[1.15, -1.69, 1.35] -> [-55.77, -28.38, 103.80, -103.80, 0.00]
[-0.31, -1.58, 1.01] -> [-101.10, -55.93, 67.43, -67.43, 0.00]
[1.68, -0.24, 1.17] -> [-8.13, -47.21, 74.14, -74.14, 0.00]
[1.0, -1.37, 1.04] -> [-53.87, -51.90, 73.50, -73.50, 0.00]
[-0.27, -0.02, 1.64] -> [-175.76, -17.34, 11.19, -11.19, 0.00]
[0.8, -1.82, -0.02] -> [-66.27, -57.02, 120.28, -120.28, 0.00]
[-0.35, 1.82, 1.5] -> [100.89, -29.68, 90.44, -90.44, 0.00]
[-0.79, -1.0, 1.55] -> [-128.31, -40.30, 52.72, -52.72, 0.00]
[0.02, -1.33, 0.33] -> [-89.14, -87.09, 59.30, -59.30, 0.00]
[-0.92, -1.34, 0.92] -> [-124.47, -58.51, 68.62, -68.62, 0.00]
[0.97, -1.26, -0.42] -> [-52.41, -77.08, 109.36, -109.36, 0.00]
[1.09, -0.47, 1.03] -> [-23.33, -68.45, 40.20, -40.20, 0.00]
[1.38, -0.7, -0.35] -> [-26.90, -80.14, 101.93, -101.93, 0.00]
[0.12, 1.9, 0.84] -> [86.39, -49.95, 89.70, -89.70, 0.00]
[-0.4, 0.53, -1.02] -> [127.04, -107.40, 108.81, -108.81, 0.00]
[-0.26, -1.82, 0.78] -> [-98.13, -54.31, 85.03, -85.03, 0.00]
[1.14, 1.78, -0.23] -> [57.36, -43.59, 153.21, -153.21, 0.00]
[-0.26, -0.36, 1.94] -> [-125.84, -9.63, 31.31, -31.31, 0.00]
[0.3, -0.7, -1.09] -> [-66.80, -100.41, 119.13, -119.13, 0.00]
[0.4, 0.73, 0.44] -> [61.28, -109.36, 29.15, -29.15, 0.00]
[0.37, -0.2, -1.42] -> [-28.39, -92.14, 156.00, -156.00, 0.00]
[0.82, 0.9, -0.89] -> [47.66, -86.27, 121.88, -121.88, 0.00]
[1.74, -0.39, 1.63] -> [-12.63, -26.47, 88.15, -88.15, 0.00]
[-1.62, 1.2, 0.47] -> [143.47, -52.33, 104.80, -104.80, 0.00]
[-1.24, -1.34, -0.35] -> [-132.78, -64.19, 124.58, -124.58, 0.00]
[-1.32, 1.06, 1.74] -> [141.23, -24.03, 84.72, -84.72, 0.00]
[-0.84, 0.3, 1.64] -> [160.35, -36.95, 34.78, -34.78, 0.00]
[-0.66, -0.94, 0.54] -> [-125.07, -90.20, 43.26, -43.26, 0.00]
[-0.04, 1.25, 0.77] -> [91.83, -77.73, 45.39, -45.39, 0.00]
[0.09, -0.34, -1.27] -> [-75.17, -107.23, 127.93, -127.93, 0.00]
[0.21, 1.3, 1.01] -> [80.82, -65.46, 48.21, -48.21, 0.00]
[-1.97, 0.33, 0.55] -> [170.49, -52.00, 101.38, -101.38, 0.00]
[-1.75, -0.95, 0.41] -> [-151.50, -54.47, 104.07, -104.07, 0.00]
[0.95, 1.47, -0.04] -> [57.13, -70.55, 100.34, -100.34, 0.00]
[0.59, 0.05, 0.03] -> [4.84, -130.04, 37.11, -37.11, 0.00]
[-0.08, -0.07, -1.04] -> [-138.81, -126.54, 100.96, -100.96, 0.00]
[-1.38, -0.86, 0.27] -> [-148.07, -74.30, 79.76, -79.76, 0.00]
[-0.23, -1.55, -0.46] -> [-98.44, -77.80, 110.34, -110.34, 0.00]
[0.65, -1.94, 0.97] -> [-71.48, -40.21, 101.27, -101.27, 0.00]
[0.96, -0.83, -0.71] -> [-40.85, -88.86, 109.12, -109.12, 0.00]
[-0.12, 1.59, -0.1] -> [94.32, -78.66, 91.87, -91.87, 0.00]
[-1.27, -1.01, 1.35] -> [-141.51, -42.38, 70.90, -70.90, 0.00]
[1.63, -0.72, 1.27] -> [-23.83, -40.76, 81.25, -81.25, 0.00]
[-0.66, 0.96, -0.12] -> [124.51, -99.95, 67.84, -67.84, 0.00]
[-1.15, -0.12, -0.45] -> [-174.04, -98.80, 85.26, -85.26, 0.00]
[-1.76, -0.19, 1.6] -> [-173.84, -28.07, 86.40, -86.40, 0.00]
[-0.78, 0.66, -0.97] -> [139.76, -93.31, 118.54, -118.54, 0.00]
[0.8, -0.6, 0.62] -> [-36.87, -94.25, 33.10, -33.10, 0.00]
[-1.82, -0.75, 1.15] -> [-157.60, -38.16, 94.97, -94.97, 0.00]
[-1.53, -0.65, 0.74] -> [-156.98, -62.64, 72.50, -72.50, 0.00]
[1.83, -1.03, 1.11] -> [-29.37, -33.74, 106.53, -106.53, 0.00]
[1.22, 1.09, 1.74] -> [41.78, -25.29, 80.75, -80.75, 0.00]
[-0.89, -0.67, 1.34] -> [-143.03, -53.62, 38.82, -38.82, 0.00]
[0.85, 0.6, -1.24] -> [35.22, -75.05, 160.07, -160.07, 0.00]
[0.3, -1.5, -0.4] -> [-78.69, -80.58, 103.78, -103.78, 0.00]
[0.7, -1.19, -0.82] -> [-59.53, -79.67, 126.30, -126.30, 0.00]
[-0.16, -0.67, 1.45] -> [-103.43, -47.56, 18.58, -18.58, 0.00]
[0.3, -0.29, -0.84] -> [-44.03, -123.33, 87.79, -87.79, 0.00]
[1.79, -0.68, 1.27] -> [-20.80, -36.18, 91.59, -91.59, 0.00]
[-0.46, 0.61, -0.09] -> [127.02, -120.42, 49.11, -49.11, 0.00]
[-1.62, 0.01, 0.98] -> [179.65, -56.65, 68.12, -68.12, 0.00]
[0.82, 0.53, 1.54] -> [32.88, -43.12, 35.86, -35.86, 0.00]
[-0.17, 0.79, 1.23] -> [102.14, -64.32, 19.59, -19.59, 0.00]
[0.42, -0.36, 0.08] -> [-40.60, -132.32, 33.33, -33.33, 0.00]
[-0.74, -1.08, -0.36] -> [-124.42, -92.15, 87.88, -87.88, 0.00]
[-0.78, -1.68, -0.43] -> [-114.90, -60.74, 133.86, -133.86, 0.00]
[-0.53, 0.79, -1.16] -> [123.86, -87.78, 136.90, -136.90, 0.00]
[-0.95, 0.84, -1.09] -> [138.52, -72.27, 152.97, -152.97, 0.00]
[1.8, -1.43, 0.87] -> [-38.47, -28.91, 128.65, -128.65, 0.00]
[0.85, -0.84, 0.89] -> [-44.66, -74.77, 40.98, -40.98, 0.00]
[0.96, -1.69, 0.58] -> [-60.40, -54.10, 96.19, -96.19, 0.00]
[-0.39, 0.65, -1.15] -> [120.96, -97.72, 125.71, -125.71, 0.00]
[1.25, 0.56, 0.21] -> [24.13, -87.25, 65.45, -65.45, 0.00]
[-1.2, -0.53, -0.05] -> [-156.17, -92.51, 72.34, -72.34, 0.00]
[1.13, 1.32, 0.04] -> [49.43, -70.97, 95.90, -95.90, 0.00]
[-1.95, 1.33, 0.51] -> [145.70, -28.91, 145.63, -145.63, 0.00]
[0.28, 1.91, 0.68] -> [81.66, -52.66, 93.50, -93.50, 0.00]
[0.9, -1.59, 0.9] -> [-60.49, -51.46, 83.35, -83.35, 0.00]
[-0.72, -1.61, 1.07] -> [-114.09, -48.49, 78.47, -78.47, 0.00]
[-1.06, 1.27, 0.26] -> [129.85, -73.10, 82.01, -82.01, 0.00]
[0.79, 0.98, 1.35] -> [51.13, -50.68, 47.56, -47.56, 0.00]
[1.06, -1.25, 0.65] -> [-49.70, -66.04, 72.02, -72.02, 0.00]
[-0.57, -0.96, 0.39] -> [-120.70, -95.94, 45.43, -45.43, 0.00]
[0.01, 0.42, 1.82] -> [88.64, -14.97, 24.32, -24.32, 0.00]
[-0.66, -1.44, -0.27] -> [-114.62, -78.80, 99.84, -99.84, 0.00]
[0.29, -1.96, 1.69] -> [-81.58, -17.76, 106.07, -106.07, 0.00]
[-0.24, 1.93, 1.39] -> [97.09, -30.78, 95.77, -95.77, 0.00]
[1.46, -0.44, 1.69] -> [-16.77, -29.72, 71.87, -71.87, 0.00]
[1.08, -0.59, -0.85] -> [-28.65, -86.94, 118.85, -118.85, 0.00]
[-0.81, 1.62, 1.39] -> [116.57, -35.29, 85.12, -85.12, 0.00]
[1.15, 0.97, -0.66] -> [40.15, -77.34, 120.95, -120.95, 0.00]
[-1.37, 0.53, 0.11] -> [158.85, -83.71, 75.00, -75.00, 0.00]
[0.63, 0.77, 0.45] -> [50.71, -100.37, 37.13, -37.13, 0.00]
[-1.03, 0.12, -0.01] -> [173.35, -105.97, 56.56, -56.56, 0.00]
[1.47, -0.13, 1.12] -> [-5.05, -55.99, 58.72, -58.72, 0.00]
[-0.21, -1.69, 1.65] -> [-97.08, -27.70, 82.82, -82.82, 0.00]
[0.28, 0.98, 0.4] -> [74.05, -100.53, 39.92, -39.92, 0.00]
[-1.21, 1.13, 0.75] -> [136.96, -62.63, 71.91, -71.91, 0.00]
[0.17, -0.43, 0.17] -> [-68.43, -137.87, 26.01, -26.01, 0.00]
[-0.38, -0.12, 0.15] -> [-162.47, -142.21, 25.35, -25.35, 0.00]
[-1.55, 1.56, 1.12] -> [134.82, -28.53, 116.68, -116.68, 0.00]
[1.42, -1.28, -0.19] -> [-42.03, -60.75, 122.31, -122.31, 0.00]
[0.36, -0.21, 0.02] -> [-30.26, -140.55, 32.82, -32.82, 0.00]
[-0.05, -1.12, -0.89] -> [-92.56, -91.25, 116.15, -116.15, 0.00]
[0.83, -0.04, -1.01] -> [-2.76, -100.66, 113.75, -113.75, 0.00]
[-1.29, 0.72, 0.56] -> [150.83, -75.20, 62.76, -62.76, 0.00]
[-1.97, 0.41, -0.31] -> [168.24, -51.16, 143.81, -143.81, 0.00]
[1.54, -0.42, 1.97] -> [-15.26, -15.56, 86.30, -86.30, 0.00]
[-0.16, 1.09, 1.31] -> [98.35, -55.49, 37.60, -37.60, 0.00]
[1.18, -1.28, 1.2] -> [-47.33, -44.68, 77.54, -77.54, 0.00]
[0.89, -0.68, 0.97] -> [-37.38, -73.46, 36.15, -36.15, 0.00]
[1.63, -1.7, 0.44] -> [-46.20, -29.55, 147.65, -147.65, 0.00]
[-0.21, -1.88, 1.46] -> [-96.37, -30.00, 92.67, -92.67, 0.00]
[-0.47, 1.75, -0.24] -> [105.03, -66.41, 115.95, -115.95, 0.00]
[-0.47, 1.54, 0.13] -> [106.97, -76.70, 83.38, -83.38, 0.00]
[0.38, -0.77, -0.84] -> [-63.73, -105.05, 99.86, -99.86, 0.00]
[0.67, 1.48, -0.76] -> [65.64, -65.92, 142.74, -142.74, 0.00]
[-1.74, -1.19, 1.37] -> [-145.63, -24.95, 110.19, -110.19, 0.00]
[-0.82, -0.3, -0.87] -> [-159.90, -103.54, 102.87, -102.87, 0.00]
[1.35, -0.55, 0.99] -> [-22.17, -61.78, 57.23, -57.23, 0.00]
[-0.09, -1.74, 0.61] -> [-92.96, -62.62, 79.99, -79.99, 0.00]
[0.71, -0.38, 1.01] -> [-28.16, -80.51, 17.56, -17.56, 0.00]
[0.16, 0.87, -0.0] -> [79.58, -113.82, 49.36, -49.36, 0.00]
[0.32, 1.77, 1.08] -> [79.75, -46.89, 81.12, -81.12, 0.00]
[0.37, -1.18, -0.67] -> [-72.59, -91.39, 104.19, -104.19, 0.00]
[-1.37, 0.16, -0.29] -> [173.34, -89.11, 87.94, -87.94, 0.00]
[-1.78, 1.23, 1.03] -> [145.36, -32.91, 112.59, -112.59, 0.00]
[0.19, 0.76, 0.19] -> [75.96, -117.69, 36.53, -36.53, 0.00]
[0.0, 0.51, -1.21] -> [90.00, -104.87, 124.27, -124.27, 0.00]
[0.91, -0.73, 0.38] -> [-38.74, -93.75, 48.48, -48.48, 0.00]
[1.16, -1.67, 0.46] -> [-55.22, -51.56, 106.63, -106.63, 0.00]
[0.98, 0.68, 0.15] -> [34.76, -96.64, 57.68, -57.68, 0.00]
[1.28, -1.19, -0.71] -> [-42.91, -57.83, 153.09, -153.09, 0.00]
[0.68, -0.47, 1.37] -> [-34.65, -54.18, 23.40, -23.40, 0.00]
[-0.16, -1.01, 0.42] -> [-99.00, -99.82, 39.49, -39.49, 0.00]
[0.85, -1.82, 1.34] -> [-64.97, -30.16, 100.46, -100.46, 0.00]
[1.32, 0.76, 1.45] -> [29.93, -40.58, 65.93, -65.93, 0.00]
[-0.23, 1.05, 0.53] -> [102.36, -93.95, 39.34, -39.34, 0.00]
[-1.53, 0.29, 1.47] -> [169.27, -38.92, 68.57, -68.57, 0.00]
[-0.11, 0.06, -1.43] -> [151.39, -101.90, 150.31, -150.31, 0.00]
[0.16, 0.88, 0.3] -> [79.70, -109.51, 37.07, -37.07, 0.00]
[-0.55, 0.72, -0.12] -> [127.38, -112.98, 56.11, -56.11, 0.00]
[-0.61, 0.67, 0.86] -> [132.32, -86.75, 24.06, -24.06, 0.00]
[1.83, -0.09, 1.68] -> [-2.82, -22.99, 93.30, -93.30, 0.00]
[1.44, -1.58, 1.98] -> [-47.65, 2.42, 135.59, -135.59, 0.00]
[-1.21, -0.99, -0.12] -> [-140.71, -80.25, 90.73, -90.73, 0.00]
[0.49, -1.03, -1.21] -> [-64.56, -69.24, 166.92, -166.92, 0.00]
[0.97, 0.76, -0.19] -> [38.08, -96.66, 74.68, -74.68, 0.00]
[-0.09, 0.14, -0.33] -> [122.74, -148.02, 49.69, -49.69, 0.00]
[0.17, -0.11, 0.09] -> [-32.91, -154.97, 24.96, -24.96, 0.00]
[-1.12, -0.86, -0.24] -> [-142.48, -87.69, 87.20, -87.20, 0.00]
[1.18, -1.47, 1.11] -> [-51.25, -42.70, 87.91, -87.91, 0.00]
[-0.48, 0.86, -0.74] -> [119.17, -101.92, 97.13, -97.13, 0.00]
[-1.36, -1.4, 1.6] -> [-134.17, -22.47, 100.88, -100.88, 0.00]
[-0.72, -1.55, 0.41] -> [-114.92, -68.20, 81.69, -81.69, 0.00]
[0.38, -0.77, -0.1] -> [-63.73, -115.43, 53.20, -53.20, 0.00]
[0.49, 0.17, -0.51] -> [19.13, -127.79, 66.50, -66.50, 0.00]
[-0.68, 1.89, 0.92] -> [109.79, -43.25, 98.07, -98.07, 0.00]
[1.18, 0.82, -0.29] -> [34.80, -86.23, 91.37, -91.37, 0.00]
[-1.26, 1.47, 0.33] -> [130.60, -58.34, 101.50, -101.50, 0.00]
[-0.12, -0.31, -0.28] -> [-111.16, -141.16, 48.56, -48.56, 0.00]
[1.01, -0.22, 1.6] -> [-12.29, -39.53, 40.68, -40.68, 0.00]
[-1.27, -1.43, 1.75] -> [-131.61, -17.59, 102.00, -102.00, 0.00]
[-1.15, -1.79, 1.14] -> [-122.72, -31.54, 109.39, -109.39, 0.00]
[1.5, 1.29, 0.62] -> [40.70, -51.65, 98.45, -98.45, 0.00]
[-1.17, -0.21, 1.56] -> [-169.82, -40.76, 48.03, -48.03, 0.00]
[-0.42, 1.97, 0.08] -> [102.04, -55.54, 118.01, -118.01, 0.00]
[-0.5, 1.8, 0.38] -> [105.52, -61.12, 94.48, -94.48, 0.00]
[-0.14, 0.96, -0.97] -> [98.30, -95.79, 115.98, -115.98, 0.00]
[-1.91, -0.18, 0.02] -> [-174.62, -61.25, 111.61, -111.61, 0.00]
[0.22, -1.66, 0.43] -> [-82.45, -69.42, 78.76, -78.76, 0.00]
[0.61, 1.31, 0.99] -> [65.03, -62.20, 56.40, -56.40, 0.00]
[0.67, 1.16, 1.31] -> [59.99, -51.03, 51.89, -51.89, 0.00]
[-0.39, -1.39, 0.06] -> [-105.67, -85.38, 75.38, -75.38, 0.00]
[1.09, -1.21, 0.21] -> [-47.99, -74.96, 81.84, -81.84, 0.00]
[-0.48, -0.48, 0.3] -> [-135.00, -122.14, 27.48, -27.48, 0.00]
[-1.56, 1.62, 1.36] -> [133.92, -18.18, 125.45, -125.45, 0.00]
[-0.13, -1.44, -0.71] -> [-95.16, -79.36, 120.84, -120.84, 0.00]
[-1.36, -1.77, 1.42] -> [-127.54, -17.01, 124.67, -124.67, 0.00]
[0.36, -0.38, -0.9] -> [-46.55, -117.26, 94.68, -94.68, 0.00]
[-1.93, -0.03, 1.61] -> [-179.11, -22.81, 99.31, -99.31, 0.00]
[-1.94, 0.72, 0.2] -> [159.64, -51.90, 118.47, -118.47, 0.00]
[-1.38, -0.73, 0.06] -> [-152.12, -79.66, 82.78, -82.78, 0.00]
[-1.29, -0.37, 1.12] -> [-164.00, -59.82, 50.13, -50.13, 0.00]
[-1.71, -1.09, 0.33] -> [-147.49, -53.41, 109.74, -109.74, 0.00]
[-0.02, -0.55, 1.28] -> [-92.08, -59.67, 6.74, -6.74, 0.00]
[-1.65, -1.81, 0.95] -> [-132.35, -14.04, 154.25, -154.25, 0.00]
[-0.62, -1.88, 1.93] -> [-108.25, -7.32, 115.04, -115.04, 0.00]
[-1.6, -0.99, 1.1] -> [-148.25, -43.16, 87.59, -87.59, 0.00]
[0.92, 0.21, -0.13] -> [12.86, -111.05, 58.17, -58.17, 0.00]
[0.7, -0.01, 0.14] -> [-0.82, -123.13, 35.45, -35.45, 0.00]
[1.32, 1.58, 1.22] -> [50.12, -32.15, 103.49, -103.49, 0.00]
[0.47, 1.49, 0.93] -> [72.49, -60.43, 64.28, -64.28, 0.00]
[1.29, -0.75, -0.42] -> [-30.17, -82.33, 102.51, -102.51, 0.00]
[1.22, 0.69, -0.47] -> [29.49, -86.41, 99.91, -99.91, 0.00]
[-1.31, 1.17, 1.56] -> [138.23, -30.11, 84.41, -84.41, 0.00]
[-0.87, -1.5, -0.19] -> [-120.11, -71.18, 106.56, -106.56, 0.00]
[-1.05, -1.7, 1.82] -> [-121.70, -11.60, 112.18, -112.18, 0.00]
[0.54, -0.51, 0.18] -> [-43.36, -120.18, 35.30, -35.30, 0.00]
[-0.6, 1.14, 1.54] -> [117.76, -40.62, 53.29, -53.29, 0.00]
[0.72, 1.56, -0.29] -> [65.22, -71.39, 111.03, -111.03, 0.00]
[-1.39, 0.29, 0.33] -> [168.22, -82.91, 64.69, -64.69, 0.00]
[-1.11, 0.18, -1.02] -> [170.79, -85.94, 129.90, -129.90, 0.00]
[-0.15, 1.1, 0.12] -> [97.77, -101.12, 54.56, -54.56, 0.00]
[-0.28, -0.28, -1.05] -> [-135.00, -116.51, 105.11, -105.11, 0.00]
[-1.6, -1.67, 0.81] -> [-133.77, -29.15, 131.09, -131.09, 0.00]
[1.06, -0.19, -1.19] -> [-10.16, -77.83, 151.97, -151.97, 0.00]
[1.62, 0.5, -0.55] -> [17.15, -68.46, 127.94, -127.94, 0.00]
[-0.5, -1.78, -0.43] -> [-105.69, -60.99, 133.47, -133.47, 0.00]
[-0.47, 0.23, -0.89] -> [153.92, -117.59, 93.86, -93.86, 0.00]
[-1.42, 0.24, 1.46] -> [170.41, -41.89, 60.78, -60.78, 0.00]
[1.05, -0.16, -1.13] -> [-8.66, -83.43, 140.12, -140.12, 0.00]
[-1.04, -1.47, 0.97] -> [-125.28, -50.38, 81.15, -81.15, 0.00]
[1.89, 0.06, 1.11] -> [1.82, -42.48, 88.39, -88.39, 0.00]
[0.41, -0.38, 0.98] -> [-42.83, -90.35, 3.40, -3.40, 0.00]
[1.34, -1.99, 1.08] -> [-56.04, -16.24, 143.69, -143.69, 0.00]
[-1.58, -1.4, -0.13] -> [-138.46, -46.86, 142.60, -142.60, 0.00]
[-0.42, -1.51, 0.24] -> [-105.54, -77.48, 76.77, -76.77, 0.00]
[-1.72, 0.19, 0.96] -> [173.70, -53.34, 75.97, -75.97, 0.00]
[-0.57, -1.31, 0.07] -> [-113.51, -86.03, 74.07, -74.07, 0.00]
[-1.95, 0.03, 0.24] -> [179.12, -58.49, 105.60, -105.60, 0.00]
[1.59, -1.15, 0.54] -> [-35.88, -53.93, 98.53, -98.53, 0.00]
[-1.74, -0.66, 0.38] -> [-159.23, -61.48, 93.90, -93.90, 0.00]
[1.18, -0.77, 1.8] -> [-33.13, -26.35, 68.13, -68.13, 0.00]
[0.66, -0.94, -1.22] -> [-54.93, -63.90, 177.49, -177.49, 0.00]
[-0.02, -1.25, 1.07] -> [-90.92, -64.71, 44.18, -44.18, 0.00]
[-1.99, 0.98, 1.12] -> [153.78, -27.50, 118.80, -118.80, 0.00]
[1.34, 0.13, 0.27] -> [5.54, -87.42, 62.09, -62.09, 0.00]
[-0.04, 1.85, -0.26] -> [91.24, -63.87, 120.76, -120.76, 0.00]
[1.07, 0.64, 0.14] -> [30.88, -94.11, 60.97, -60.97, 0.00]
[0.19, 1.26, 1.32] -> [81.42, -51.89, 48.02, -48.02, 0.00]
[0.81, -1.73, 1.41] -> [-64.91, -31.26, 93.25, -93.25, 0.00]
[0.08, 0.26, 0.1] -> [72.90, -150.47, 25.43, -25.43, 0.00]
[0.86, 1.91, 0.35] -> [65.76, -49.39, 115.69, -115.69, 0.00]
[-1.98, -0.11, 0.84] -> [-176.82, -46.48, 96.28, -96.28, 0.00]
[-0.72, -0.12, 1.54] -> [-170.54, -41.74, 23.54, -23.54, 0.00]
[0.11, -0.19, -1.2] -> [-59.93, -115.49, 117.62, -117.62, 0.00]
[1.16, 0.5, 1.5] -> [23.32, -42.98, 50.84, -50.84, 0.00]
[0.55, -1.81, -0.52] -> [-73.10, -54.34, 148.89, -148.89, 0.00]
[0.04, -0.72, 0.31] -> [-86.82, -119.32, 28.84, -28.84, 0.00]
[-1.02, -1.94, -0.08] -> [-117.73, -39.89, 152.68, -152.68, 0.00]
[1.0, 0.93, 1.45] -> [42.92, -43.80, 55.93, -55.93, 0.00]
[-0.35, 1.46, 1.25] -> [103.48, -49.81, 61.46, -61.46, 0.00]
[1.06, -0.25, -0.96] -> [-13.27, -90.35, 121.18, -121.18, 0.00]
[-1.74, 1.62, 0.94] -> [137.05, -21.55, 139.79, -139.79, 0.00]
[1.29, -0.07, 0.66] -> [-3.11, -80.04, 49.41, -49.41, 0.00]
[-1.03, -0.49, -0.47] -> [-154.56, -99.32, 85.74, -85.74, 0.00]
[0.57, 0.84, 0.58] -> [55.84, -95.06, 34.83, -34.83, 0.00]
[-0.56, 1.33, 0.91] -> [112.83, -65.34, 56.45, -56.45, 0.00]
[0.71, -1.66, 0.15] -> [-66.84, -66.81, 96.80, -96.80, 0.00]
[0.52, 0.04, 0.71] -> [4.40, -116.30, 5.55, -5.55, 0.00]
[-0.35, -0.87, -0.34] -> [-111.91, -110.42, 69.19, -69.19, 0.00]
[-0.69, 0.28, 1.18] -> [157.91, -68.77, 15.29, -15.29, 0.00]
[-1.23, 1.59, 0.89] -> [127.72, -43.97, 98.33, -98.33, 0.00]
[1.38, 1.41, 1.09] -> [45.62, -39.87, 95.04, -95.04, 0.00]
[-0.88, 1.38, 1.93] -> [122.52, -16.67, 87.46, -87.46, 0.00]
[0.45, 0.15, 1.9] -> [18.43, -12.80, 29.98, -29.98, 0.00]
[-0.22, 0.52, 0.5] -> [112.93, -124.22, 14.60, -14.60, 0.00]
[-1.48, -0.55, -0.31] -> [-159.61, -78.81, 101.75, -101.75, 0.00]
[-0.7, 0.64, 0.92] -> [137.56, -81.76, 26.11, -26.11, 0.00]
[0.64, 0.57, -0.53] -> [41.69, -111.93, 77.63, -77.63, 0.00]
[1.94, 1.07, 1.11] -> [28.88, -27.94, 118.44, -118.44, 0.00]
[-0.23, 1.29, 0.26] -> [100.11, -89.29, 60.32, -60.32, 0.00]
[-0.87, 0.17, 1.53] -> [168.94, -43.67, 30.90, -30.90, 0.00]
[0.81, -1.77, 0.66] -> [-65.41, -52.35, 95.12, -95.12, 0.00]
[-1.64, -0.44, 0.55] -> [-164.98, -65.92, 77.85, -77.85, 0.00]
[-0.62, -0.29, 0.35] -> [-154.93, -120.70, 25.65, -25.65, 0.00]
[0.2, -0.23, 1.51] -> [-48.99, -28.17, 5.40, -5.40, 0.00]
[-0.88, -0.12, 0.85] -> [-172.23, -88.03, 23.12, -23.12, 0.00]
[-1.83, -0.98, 1.84] -> [-151.83, -7.55, 120.85, -120.85, 0.00]
[0.13, -0.58, 1.93] -> [-77.37, -15.01, 35.14, -35.14, 0.00]
[-0.74, -1.27, 1.63] -> [-120.23, -33.46, 66.68, -66.68, 0.00]
[0.75, -0.72, 1.81] -> [-43.83, -27.94, 48.28, -48.28, 0.00]
[0.76, -1.54, 0.81] -> [-63.73, -58.44, 75.74, -75.74, 0.00]
[-0.85, -0.32, 1.67] -> [-159.37, -35.26, 36.64, -36.64, 0.00]
[1.21, 0.31, -0.15] -> [14.37, -95.84, 73.59, -73.59, 0.00]
[-0.19, -1.46, -0.46] -> [-97.41, -82.88, 103.76, -103.76, 0.00]
[-0.31, 0.34, -0.64] -> [132.36, -127.34, 73.98, -73.98, 0.00]
[-0.25, 0.72, 0.89] -> [109.15, -90.45, 15.52, -15.52, 0.00]
[-1.12, 0.61, -0.1] -> [151.43, -94.47, 72.61, -72.61, 0.00]
[-1.59, 1.69, 0.14] -> [133.25, -29.47, 161.73, -161.73, 0.00]
[0.61, -0.67, 1.06] -> [-47.68, -74.44, 23.55, -23.55, 0.00]
[1.88, -1.09, 0.32] -> [-30.10, -44.69, 125.38, -125.38, 0.00]
[-1.05, -0.07, 0.07] -> [-176.19, -104.58, 53.77, -53.77, 0.00]
[0.05, -1.97, -0.28] -> [-88.55, -55.35, 135.31, -135.31, 0.00]
[-1.51, -0.85, 1.02] -> [-150.62, -51.28, 76.12, -76.12, 0.00]
[-1.23, -1.23, -0.2] -> [-135.00, -70.83, 107.53, -107.53, 0.00]
[-1.71, -0.04, 0.31] -> [-178.66, -69.73, 84.47, -84.47, 0.00]
[0.04, -0.81, 1.6] -> [-87.17, -38.77, 29.48, -29.48, 0.00]
[0.79, -1.34, 0.39] -> [-59.48, -75.58, 71.67, -71.67, 0.00]
[0.65, 0.16, 1.01] -> [13.83, -84.28, 9.72, -9.72, 0.00]
[0.44, 1.81, -0.27] -> [76.34, -62.98, 122.62, -122.62, 0.00]
[1.28, 0.38, -0.69] -> [16.53, -85.91, 111.56, -111.56, 0.00]
[-0.18, 1.49, 1.37] -> [96.89, -44.63, 63.05, -63.05, 0.00]
[-1.73, 1.39, 1.26] -> [141.22, -23.18, 120.27, -120.27, 0.00]
[1.4, 1.5, 0.97] -> [46.97, -39.94, 101.80, -101.80, 0.00]
[-0.23, -1.1, -0.66] -> [-101.81, -97.11, 97.58, -97.58, 0.00]
[0.65, -0.31, -0.03] -> [-25.50, -122.81, 44.47, -44.47, 0.00]
[-0.07, -1.44, 1.0] -> [-92.78, -61.91, 56.18, -56.18, 0.00]
[0.0, -1.44, -0.16] -> [-90.00, -86.43, 84.84, -84.84, 0.00]
[0.85, 1.37, -0.79] -> [58.18, -65.34, 145.31, -145.31, 0.00]
[0.24, 1.66, 0.61] -> [81.77, -65.43, 75.32, -75.32, 0.00]
[-0.49, 1.1, 0.71] -> [114.01, -81.87, 43.35, -43.35, 0.00]
[-0.74, 0.26, 0.83] -> [160.64, -93.53, 17.40, -17.40, 0.00]
[-0.22, -0.33, 0.16] -> [-123.69, -142.34, 24.77, -24.77, 0.00]
[0.25, -1.59, 1.59] -> [-81.06, -32.49, 74.76, -74.76, 0.00]
[0.82, 1.75, 0.56] -> [64.89, -55.01, 95.64, -95.64, 0.00]
[0.75, -0.25, 0.79] -> [-18.43, -95.73, 18.30, -18.30, 0.00]
[0.13, -1.03, -0.69] -> [-82.81, -100.56, 95.75, -95.75, 0.00]
[0.59, -1.66, -0.27] -> [-70.43, -69.08, 113.42, -113.42, 0.00]
[-1.13, 0.65, 1.68] -> [150.09, -33.43, 58.05, -58.05, 0.00]
[-1.4, -0.21, 0.2] -> [-171.47, -85.21, 68.53, -68.53, 0.00]
[1.89, -1.13, 0.04] -> [-30.87, -41.55, 144.02, -144.02, 0.00]
[0.71, 1.09, -0.66] -> [56.92, -88.36, 107.12, -107.12, 0.00]
[-0.34, 1.65, 0.91] -> [101.64, -56.65, 72.82, -72.82, 0.00]
[-1.12, -1.41, 0.08] -> [-128.46, -67.51, 99.11, -99.11, 0.00]
[1.34, 1.48, 1.22] -> [47.84, -34.75, 97.93, -97.93, 0.00]
[0.15, 0.81, 1.71] -> [79.51, -32.16, 34.17, -34.17, 0.00]
[1.14, 0.84, 0.94] -> [36.38, -65.13, 54.60, -54.60, 0.00]
[0.35, 1.56, -0.84] -> [77.35, -63.37, 151.29, -151.29, 0.00]
[-1.27, 1.25, 0.79] -> [135.45, -56.39, 80.65, -80.65, 0.00]
[0.27, 0.65, 0.86] -> [67.44, -95.00, 12.49, -12.49, 0.00]
[-0.69, 0.11, -0.84] -> [170.94, -111.98, 94.46, -94.46, 0.00]
[1.04, -0.24, -0.83] -> [-12.99, -95.72, 108.05, -108.05, 0.00]
[-1.58, -0.67, 1.89] -> [-157.02, -16.81, 91.55, -91.55, 0.00]
[0.72, -0.92, 0.08] -> [-51.95, -98.65, 59.14, -59.14, 0.00]
[0.81, -1.73, 0.62] -> [-64.91, -54.88, 92.74, -92.74, 0.00]
[0.96, -1.98, 1.17] -> [-64.13, -26.99, 117.19, -117.19, 0.00]
[0.6, -1.16, 0.81] -> [-62.65, -74.08, 48.39, -48.39, 0.00]
[-1.51, 1.39, 0.63] -> [137.37, -47.78, 104.88, -104.88, 0.00]
[-1.63, -0.14, -0.57] -> [-175.09, -71.72, 124.19, -124.19, 0.00]
[1.67, 0.07, 1.58] -> [2.40, -31.47, 78.78, -78.78, 0.00]
[0.77, 0.69, -0.56] -> [41.86, -103.17, 86.59, -86.59, 0.00]
[-1.2, -0.48, -0.99] -> [-158.20, -77.54, 138.92, -138.92, 0.00]
[1.57, -1.2, -0.03] -> [-37.39, -57.74, 119.58, -119.58, 0.00]
[1.01, -0.79, 0.42] -> [-38.03, -87.36, 53.96, -53.96, 0.00]
[0.44, 0.3, -1.4] -> [34.29, -89.20, 156.58, -156.58, 0.00]
[-1.34, -1.65, 0.96] -> [-129.08, -36.69, 108.78, -108.78, 0.00]
[-1.69, -1.46, 0.68] -> [-139.18, -36.74, 122.82, -122.82, 0.00]
[0.68, -1.45, 1.04] -> [-64.88, -55.13, 66.87, -66.87, 0.00]
[-0.71, -0.37, 0.26] -> [-152.47, -115.58, 34.33, -34.33, 0.00]
[-0.94, -1.75, 0.94] -> [-118.24, -43.68, 96.09, -96.09, 0.00]
[-1.55, -0.82, 1.91] -> [-152.12, -15.03, 95.09, -95.09, 0.00]
[-0.51, -1.83, 0.95] -> [-105.57, -47.06, 88.89, -88.89, 0.00]
[-1.72, -1.23, 1.14] -> [-144.43, -32.16, 108.11, -108.11, 0.00]
[-1.28, 1.26, -0.22] -> [135.45, -67.50, 113.36, -113.36, 0.00]
[1.63, -1.08, 1.17] -> [-33.53, -38.03, 94.00, -94.00, 0.00]
[0.49, -1.76, -0.15] -> [-74.44, -66.15, 112.07, -112.07, 0.00]
[0.58, -0.97, 0.97] -> [-59.12, -73.14, 36.76, -36.76, 0.00]
[0.38, 1.54, -0.12] -> [76.14, -79.10, 92.25, -92.25, 0.00]
[-0.71, 1.66, 1.07] -> [113.16, -46.98, 81.60, -81.60, 0.00]
[-0.69, -1.41, 0.11] -> [-116.08, -78.84, 81.42, -81.42, 0.00]
[1.31, 0.89, 0.56] -> [34.19, -70.65, 69.76, -69.76, 0.00]
[0.67, -0.8, 0.15] -> [-50.05, -104.14, 50.04, -50.04, 0.00]
[0.32, -0.05, -1.16] -> [-8.88, -114.11, 114.72, -114.72, 0.00]
[0.2, -1.88, -0.49] -> [-83.93, -55.77, 144.95, -144.95, 0.00]
[-0.69, -0.56, 0.51] -> [-140.94, -103.96, 29.83, -29.83, 0.00]
[-0.57, 1.78, -0.04] -> [107.76, -64.06, 110.06, -110.06, 0.00]
[-0.01, 0.74, 0.79] -> [90.77, -98.10, 15.48, -15.48, 0.00]
[1.03, 1.32, -0.56] -> [52.03, -69.57, 126.82, -126.82, 0.00]
[-1.86, 0.43, 0.74] -> [166.98, -52.25, 91.01, -91.01, 0.00]
[0.6, 0.58, 1.33] -> [44.03, -56.96, 22.92, -22.92, 0.00]
[-1.56, 0.29, -0.21] -> [169.47, -78.93, 96.79, -96.79, 0.00]
[0.03, -1.9, 1.13] -> [-89.10, -41.47, 89.23, -89.23, 0.00]
[-1.11, -1.88, 0.85] -> [-120.56, -36.35, 115.17, -115.17, 0.00]
[0.14, 0.52, 0.79] -> [74.93, -109.07, 4.47, -4.47, 0.00]
[-0.7, 0.79, -0.68] -> [131.54, -99.96, 95.81, -95.81, 0.00]
[-0.43, -0.06, -0.23] -> [-172.06, -136.84, 47.43, -47.43, 0.00]
[-1.63, 1.05, 1.51] -> [147.21, -26.46, 97.60, -97.60, 0.00]
[0.07, 1.52, 1.41] -> [87.36, -42.38, 65.09, -65.09, 0.00]
[-0.25, -0.48, 1.36] -> [-117.51, -52.07, 8.60, -8.60, 0.00]
[-1.41, 1.35, -0.26] -> [136.25, -57.10, 131.48, -131.48, 0.00]
[-1.23, -1.54, 0.36] -> [-128.61, -56.17, 103.65, -103.65, 0.00]
[0.09, -1.71, 1.57] -> [-86.99, -30.87, 81.44, -81.44, 0.00]
[0.29, 1.4, 1.91] -> [78.30, -20.84, 73.36, -73.36, 0.00]
[-1.01, 0.19, -0.85] -> [169.35, -97.03, 107.83, -107.83, 0.00]
[1.08, 1.0, -0.1] -> [42.80, -84.80, 83.94, -83.94, 0.00]
[-0.44, 1.23, 0.2] -> [109.68, -90.42, 62.12, -62.12, 0.00]
[1.64, 0.91, 1.14] -> [29.02, -42.07, 87.32, -87.32, 0.00]
[0.39, -1.68, 1.51] -> [-76.93, -33.04, 80.97, -80.97, 0.00]
[-0.28, -0.08, -0.52] -> [-164.05, -137.57, 63.18, -63.18, 0.00]
[-0.08, 0.68, -0.01] -> [96.71, -124.76, 42.21, -42.21, 0.00]
[0.51, -0.85, -1.18] -> [-59.04, -84.22, 142.67, -142.67, 0.00]
[-0.24, -0.52, 1.16] -> [-114.78, -71.68, 5.42, -5.42, 0.00]
[-0.49, -1.59, -0.07] -> [-107.13, -75.09, 95.31, -95.31, 0.00]
[-1.49, -1.58, 0.07] -> [-133.32, -44.55, 137.26, -137.26, 0.00]
[-1.0, 0.06, 0.22] -> [176.57, -105.27, 45.27, -45.27, 0.00]
[-0.95, 1.48, -0.01] -> [122.70, -70.05, 99.64, -99.64, 0.00]
[-0.06, -0.19, -0.96] -> [-107.53, -126.88, 94.62, -94.62, 0.00]
[-1.56, 1.04, -0.21] -> [146.31, -62.87, 119.93, -119.93, 0.00]
[0.28, 1.5, 0.58] -> [79.43, -72.62, 65.55, -65.55, 0.00]
[-0.55, -0.65, -0.47] -> [-130.24, -113.09, 73.65, -73.65, 0.00]
[-0.42, -0.68, 1.23] -> [-121.70, -64.40, 19.09, -19.09, 0.00]
[0.35, 0.43, -0.32] -> [50.86, -129.45, 55.53, -55.53, 0.00]
[1.31, -0.93, -0.25] -> [-35.37, -77.73, 100.31, -100.31, 0.00]
[-1.05, -1.31, 1.41] -> [-128.71, -38.39, 75.77, -75.77, 0.00]
[0.84, 0.64, -0.2] -> [37.30, -105.34, 66.63, -66.63, 0.00]
[1.64, 1.01, 1.53] -> [31.63, -26.13, 96.98, -96.98, 0.00]
[0.91, 1.23, 1.39] -> [53.50, -43.05, 65.30, -65.30, 0.00]
[-1.65, 0.57, 0.64] -> [160.94, -61.77, 79.76, -79.76, 0.00]
[0.59, -1.07, -1.04] -> [-61.13, -79.20, 139.76, -139.76, 0.00]
[-0.47, 1.19, 1.16] -> [111.55, -59.62, 46.50, -46.50, 0.00]
[-0.54, 1.2, 1.27] -> [114.23, -53.47, 49.88, -49.88, 0.00]
[-0.88, -0.58, 0.71] -> [-146.61, -88.13, 34.50, -34.50, 0.00]
[-0.03, 0.66, -1.27] -> [92.60, -95.01, 137.53, -137.53, 0.00]
[1.53, -1.19, 0.41] -> [-37.87, -57.20, 99.47, -99.47, 0.00]
[1.83, 0.34, 0.89] -> [10.53, -50.36, 86.04, -86.04, 0.00]
[-0.44, -1.55, -0.59] -> [-105.85, -72.76, 123.73, -123.73, 0.00]
[0.48, 0.22, 1.9] -> [24.62, -14.63, 31.53, -31.53, 0.00]
[-1.95, 1.34, 0.39] -> [145.50, -28.12, 152.67, -152.67, 0.00]
[-1.16, 0.49, 0.78] -> [157.10, -77.01, 45.80, -45.80, 0.00]
[-1.99, -0.44, 1.71] -> [-167.53, -14.79, 112.01, -112.01, 0.00]
[-0.39, 0.73, 1.48] -> [118.11, -46.69, 26.40, -26.40, 0.00]
[-0.39, -1.31, 0.51] -> [-106.58, -81.30, 56.85, -56.85, 0.00]
[0.98, -0.97, -0.13] -> [-44.71, -89.44, 79.79, -79.79, 0.00]
[-0.96, -1.22, 1.19] -> [-128.20, -50.88, 64.28, -64.28, 0.00]
[1.13, 0.33, 1.81] -> [16.28, -27.79, 55.35, -55.35, 0.00]
[-1.75, 0.58, -0.54] -> [161.66, -57.87, 144.01, -144.01, 0.00]
[-1.52, 0.36, 0.26] -> [166.68, -77.45, 75.79, -75.79, 0.00]
[-0.84, -1.0, 1.76] -> [-130.03, -29.44, 60.73, -60.73, 0.00]
[-1.42, 0.84, 0.7] -> [149.39, -64.26, 72.09, -72.09, 0.00]
[1.71, -0.94, 1.63] -> [-28.80, -21.28, 101.66, -101.66, 0.00]
[-0.22, 1.26, 1.44] -> [99.90, -45.78, 50.47, -50.47, 0.00]
[1.34, 1.49, 1.31] -> [48.03, -31.40, 99.61, -99.61, 0.00]
[0.88, 0.13, 1.03] -> [8.40, -76.82, 22.49, -22.49, 0.00]
[0.78, -0.84, -0.18] -> [-47.12, -100.90, 69.86, -69.86, 0.00]
[-1.51, -0.11, -0.15] -> [-175.83, -82.74, 88.95, -88.95, 0.00]
[-0.9, -1.76, 0.05] -> [-117.08, -57.82, 115.69, -115.69, 0.00]
[-1.77, 1.36, 0.82] -> [142.46, -34.19, 120.85, -120.85, 0.00]
[0.12, 0.55, 1.63] -> [77.69, -31.85, 19.86, -19.86, 0.00]
[1.92, -0.73, 1.14] -> [-20.82, -34.89, 102.42, -102.42, 0.00]
[-1.56, -0.29, 0.16] -> [-169.47, -77.53, 80.73, -80.73, 0.00]
[1.97, -0.31, -0.49] -> [-8.94, -42.67, 168.20, -168.20, 0.00]
[-1.04, 0.38, 1.89] -> [159.93, -23.80, 54.81, -54.81, 0.00]
[1.34, 1.37, -0.21] -> [45.63, -60.24, 124.06, -124.06, 0.00]
[0.7, -0.85, -1.24] -> [-50.53, -67.44, 172.77, -172.77, 0.00]
[0.27, -0.09, 1.74] -> [-18.43, -12.62, 16.84, -16.84, 0.00]
[0.75, 1.01, -1.11] -> [53.40, -71.16, 156.07, -156.07, 0.00]
[0.03, 1.54, 0.49] -> [88.88, -74.18, 68.29, -68.29, 0.00]
[0.43, -1.93, 0.67] -> [-77.44, -50.68, 97.59, -97.59, 0.00]
[-0.98, -0.34, 0.82] -> [-160.87, -83.80, 32.09, -32.09, 0.00]
[-1.64, 0.25, 1.72] -> [171.33, -25.68, 81.72, -81.72, 0.00]
[1.6, -1.2, 1.39] -> [-36.87, -28.72, 100.50, -100.50, 0.00]
[-1.93, -0.98, 0.91] -> [-153.08, -35.95, 112.86, -112.86, 0.00]
[-1.65, 1.41, 0.57] -> [139.48, -42.30, 117.80, -117.80, 0.00]
[-1.73, -0.16, 1.14] -> [-174.72, -46.97, 76.85, -76.85, 0.00]
[-0.74, 0.5, 0.25] -> [145.95, -110.57, 38.92, -38.92, 0.00]
[1.07, -1.98, 0.83] -> [-61.61, -32.86, 122.93, -122.93, 0.00]
[0.82, -0.67, -0.47] -> [-39.25, -103.25, 81.97, -81.97, 0.00]
[1.74, 0.99, 1.8] -> [29.64, -12.33, 111.77, -111.77, 0.00]
[-1.55, -1.58, 1.39] -> [-134.45, -19.11, 121.79, -121.79, 0.00]
[-0.13, -1.85, 0.29] -> [-94.02, -62.97, 95.96, -95.96, 0.00]
[-1.28, -0.54, 0.72] -> [-157.13, -74.10, 54.59, -54.59, 0.00]
[-1.33, -0.97, 0.34] -> [-143.90, -72.30, 79.10, -79.10, 0.00]
[-1.53, -1.68, 1.02] -> [-132.32, -27.10, 124.80, -124.80, 0.00]
[-1.71, 0.79, 1.42] -> [155.20, -31.79, 91.28, -91.28, 0.00]
[0.11, -0.11, -0.37] -> [-45.00, -147.46, 52.13, -52.13, 0.00]
[1.56, -0.28, 1.16] -> [-10.18, -51.11, 66.25, -66.25, 0.00]
[0.25, 1.72, 0.73] -> [81.73, -59.82, 78.02, -78.02, 0.00]
[0.45, 1.22, 1.14] -> [69.75, -60.03, 47.65, -47.65, 0.00]
[0.46, -0.49, 1.52] -> [-46.81, -42.20, 20.14, -20.14, 0.00]
[-0.48, -1.84, 1.25] -> [-104.62, -37.36, 90.30, -90.30, 0.00]
[0.37, -1.11, 1.98] -> [-71.57, -19.18, 61.74, -61.74, 0.00]
[-0.92, -1.65, 1.81] -> [-119.14, -15.74, 102.11, -102.11, 0.00]
[-1.77, 0.65, 0.55] -> [159.84, -57.43, 91.99, -91.99, 0.00]
[-0.07, 1.52, -0.28] -> [92.64, -81.98, 96.18, -96.18, 0.00]
[1.32, 1.19, -0.71] -> [42.04, -54.43, 158.93, -158.93, 0.00]
[0.66, 0.35, 0.14] -> [27.94, -120.38, 37.28, -37.28, 0.00]
[-0.66, -1.31, -0.91] -> [-116.74, -69.90, 145.16, -145.16, 0.00]
[-1.09, -0.75, -0.07] -> [-145.47, -92.03, 73.86, -73.86, 0.00]
[-1.08, 0.6, -0.39] -> [150.95, -95.54, 85.66, -85.66, 0.00]
[-0.14, -0.52, 1.67] -> [-105.07, -28.43, 20.72, -20.72, 0.00]
[1.05, 0.85, 1.48] -> [38.99, -42.61, 55.66, -55.66, 0.00]
[0.46, 0.5, 1.87] -> [47.39, -20.41, 35.15, -35.15, 0.00]
[-0.15, -0.63, -0.66] -> [-103.39, -118.83, 79.72, -79.72, 0.00]
[-0.8, 0.76, -0.08] -> [136.47, -102.92, 62.93, -62.93, 0.00]
[-0.36, -1.4, -0.02] -> [-104.42, -85.82, 78.78, -78.78, 0.00]
[0.43, -1.26, -0.91] -> [-71.16, -79.04, 132.16, -132.16, 0.00]
[-1.43, -1.34, 1.79] -> [-136.86, -14.29, 107.51, -107.51, 0.00]
[1.99, -0.61, 0.84] -> [-17.04, -41.86, 105.08, -105.08, 0.00]
[1.39, -1.14, 1.47] -> [-39.36, -32.58, 85.54, -85.54, 0.00]
[1.2, 1.65, 0.65] -> [53.97, -48.01, 103.44, -103.44, 0.00]
[-0.42, -0.53, 1.15] -> [-128.40, -71.97, 11.06, -11.06, 0.00]
[-0.9, -0.5, 1.27] -> [-150.95, -58.91, 32.78, -32.78, 0.00]
[1.35, 1.68, 1.96] -> [51.22, 2.39, 136.77, -136.77, 0.00]
[0.85, 1.76, 1.05] -> [64.22, -41.85, 93.37, -93.37, 0.00]
[-0.06, -0.69, 1.33] -> [-94.97, -56.85, 15.36, -15.36, 0.00]
[-0.83, -0.63, 1.5] -> [-142.80, -45.23, 38.28, -38.28, 0.00]
[1.02, 2.0, 1.68] -> [62.98, -5.80, 134.71, -134.71, 0.00]
[-0.94, 0.78, 0.02] -> [140.31, -96.53, 64.42, -64.42, 0.00]
[-0.68, -0.07, -0.86] -> [-174.12, -112.02, 95.60, -95.60, 0.00]
[0.11, 0.2, 1.79] -> [61.19, -6.84, 18.55, -18.55, 0.00]
[-1.07, 1.28, -0.73] -> [129.89, -63.92, 144.23, -144.23, 0.00]
[-0.6, -0.09, -0.4] -> [-171.47, -125.71, 61.72, -61.72, 0.00]
[-1.02, -0.84, 0.52] -> [-140.53, -83.03, 53.86, -53.86, 0.00]
[1.59, -0.87, -0.71] -> [-28.69, -48.52, 169.62, -169.62, 0.00]
[-0.26, -1.55, 1.15] -> [-99.52, -51.91, 65.29, -65.29, 0.00]
[-1.89, -0.24, 0.42] -> [-172.76, -58.71, 96.45, -96.45, 0.00]
[0.01, 1.08, -1.24] -> [89.47, -70.85, 166.82, -166.82, 0.00]
[-1.2, 0.02, -0.14] -> [179.05, -98.24, 70.57, -70.57, 0.00]
[0.96, 0.24, 0.09] -> [14.04, -107.63, 49.94, -49.94, 0.00]
[-1.14, 0.63, -0.71] -> [151.07, -87.14, 111.13, -111.13, 0.00]
[0.62, -0.44, 1.02] -> [-35.36, -81.01, 14.97, -14.97, 0.00]
[0.58, 0.38, -1.05] -> [33.23, -105.00, 112.62, -112.62, 0.00]
[0.99, 0.77, 0.29] -> [37.87, -91.44, 56.15, -56.15, 0.00]
[1.84, -0.2, -0.3] -> [-6.20, -63.33, 123.50, -123.50, 0.00]
[1.28, -0.21, 0.26] -> [-9.32, -89.92, 59.56, -59.56, 0.00]
[-1.67, 0.75, -0.31] -> [155.82, -64.48, 122.22, -122.22, 0.00]
[-0.78, -1.17, 0.21] -> [-123.69, -85.52, 67.62, -67.62, 0.00]
[0.08, -1.01, 1.5] -> [-85.47, -45.38, 36.71, -36.71, 0.00]
[-1.28, 0.98, 0.99] -> [142.56, -56.57, 67.57, -67.57, 0.00]
[-1.66, -0.22, 1.64] -> [-172.45, -28.82, 80.53, -80.53, 0.00]
[-1.76, -0.64, -0.61] -> [-160.02, -50.68, 160.02, -160.02, 0.00]
[-0.54, 0.09, -1.02] -> [170.54, -112.05, 105.58, -105.58, 0.00]
[-0.3, 0.29, -1.35] -> [135.97, -99.31, 141.25, -141.25, 0.00]
[-1.19, -0.85, 1.6] -> [-144.46, -34.99, 65.41, -65.41, 0.00]
[-0.61, 1.4, 0.59] -> [113.54, -72.30, 65.45, -65.45, 0.00]
[-0.79, 0.01, -0.21] -> [179.27, -118.66, 56.40, -56.40, 0.00]
[-0.92, -0.4, -1.28] -> [-156.50, -71.71, 169.09, -169.09, 0.00]
[-1.24, -0.26, 1.61] -> [-168.16, -37.35, 53.88, -53.88, 0.00]
[-1.61, -1.38, 1.88] -> [-139.40, -3.58, 127.77, -127.77, 0.00]
[-0.58, 0.9, 0.64] -> [122.80, -90.24, 36.70, -36.70, 0.00]
[1.28, 0.18, 0.32] -> [8.00, -89.04, 57.41, -57.41, 0.00]
[-1.36, 1.1, 1.5] -> [141.03, -32.78, 82.54, -82.54, 0.00]
[0.94, 0.69, -0.85] -> [36.28, -90.27, 115.00, -115.00, 0.00]
[-0.52, -0.03, -0.99] -> [-176.70, -114.21, 102.25, -102.25, 0.00]
[-1.48, -0.39, -0.89] -> [-165.24, -65.98, 150.03, -150.03, 0.00]
[0.13, -1.35, 1.31] -> [-84.50, -50.66, 52.92, -52.92, 0.00]
[0.23, 0.52, 0.43] -> [66.14, -126.30, 17.55, -17.55, 0.00]
[-0.62, 0.0, 0.12] -> [180.00, -128.08, 33.50, -33.50, 0.00]
[1.49, 0.99, -0.68] -> [33.60, -55.50, 155.40, -155.40, 0.00]
[0.19, -0.66, -0.26] -> [-73.94, -123.53, 55.75, -55.75, 0.00]
[-0.55, -0.01, -0.02] -> [-178.96, -132.43, 38.47, -38.47, 0.00]
[-0.39, -0.39, 0.7] -> [-135.00, -114.88, 7.33, -7.33, 0.00]
[-1.59, 0.68, 0.61] -> [156.84, -63.19, 79.04, -79.04, 0.00]
[-1.96, 1.34, 1.71] -> [145.64, 8.17, 163.05, -163.05, 0.00]
[-1.07, 0.17, -0.92] -> [170.97, -92.10, 116.92, -116.92, 0.00]
[-0.02, 1.08, -0.69] -> [91.06, -98.58, 97.68, -97.68, 0.00]
[-0.96, 1.18, 1.65] -> [129.13, -31.61, 70.50, -70.50, 0.00]
[1.48, 1.2, 0.33] -> [39.04, -59.92, 98.90, -98.90, 0.00]
[1.65, -0.73, 0.78] -> [-23.87, -55.74, 82.42, -82.42, 0.00]
[-0.43, 1.97, 0.66] -> [102.31, -49.00, 101.14, -101.14, 0.00]
[0.05, 1.29, 0.77] -> [87.78, -76.17, 47.86, -47.86, 0.00]
[1.73, -1.61, 0.9] -> [-42.94, -23.57, 137.72, -137.72, 0.00]
[0.86, 0.57, 1.46] -> [33.54, -47.62, 36.70, -36.70, 0.00]
[1.52, 1.61, 1.24] -> [46.65, -24.09, 119.44, -119.44, 0.00]
[-0.26, 1.02, 0.49] -> [104.30, -96.29, 39.12, -39.12, 0.00]
[0.03, -1.37, 1.48] -> [-88.75, -42.27, 56.85, -56.85, 0.00]
[0.99, -1.2, 0.27] -> [-50.48, -77.61, 75.07, -75.07, 0.00]
[-0.49, 0.25, -0.38] -> [152.97, -128.74, 59.05, -59.05, 0.00]
[0.49, -0.62, 0.69] -> [-51.68, -101.37, 20.09, -20.09, 0.00]
[-1.81, -0.36, 0.12] -> [-168.75, -64.94, 101.12, -101.12, 0.00]
[-0.86, -1.35, 1.53] -> [-122.50, -35.31, 72.75, -72.75, 0.00]
[-0.2, 1.42, -0.94] -> [98.02, -70.54, 145.97, -145.97, 0.00]
[0.52, 1.19, 0.89] -> [66.40, -71.16, 47.36, -47.36, 0.00]
[1.24, 1.09, 1.01] -> [41.32, -54.52, 70.27, -70.27, 0.00]
[1.88, 0.53, 1.81] -> [15.74, -13.65, 107.66, -107.66, 0.00]
[-1.19, 1.75, 1.87] -> [124.22, -4.26, 126.78, -126.78, 0.00]
[0.15, -1.0, -0.71] -> [-81.47, -101.39, 96.03, -96.03, 0.00]
[0.49, 0.88, 1.92] -> [60.89, -21.99, 51.20, -51.20, 0.00]
[0.67, -1.52, 0.37] -> [-66.21, -71.11, 79.33, -79.33, 0.00]
[-1.66, 0.76, 1.61] -> [155.40, -26.09, 90.87, -90.87, 0.00]
[1.27, -0.64, -0.37] -> [-26.75, -86.42, 95.01, -95.01, 0.00]
[-1.59, -1.55, 1.77] -> [-135.73, -3.19, 135.37, -135.37, 0.00]
[-0.15, -1.17, 0.64] -> [-97.31, -85.46, 43.02, -43.02, 0.00]
[0.08, 0.81, 0.51] -> [84.36, -108.04, 26.01, -26.01, 0.00]
[-1.91, 0.43, 1.67] -> [167.31, -19.42, 103.37, -103.37, 0.00]
[0.41, -0.65, 1.12] -> [-57.76, -73.14, 15.97, -15.97, 0.00]
[-1.77, 1.58, 1.34] -> [138.25, -10.33, 143.04, -143.04, 0.00]
[0.83, 0.45, 0.87] -> [28.47, -84.75, 26.19, -26.19, 0.00]
[-1.19, 1.09, 0.98] -> [137.51, -56.87, 67.69, -67.69, 0.00]
[-0.22, -1.64, 0.06] -> [-97.64, -75.05, 89.10, -89.10, 0.00]
[-1.56, -0.72, -0.26] -> [-155.22, -71.64, 109.24, -109.24, 0.00]
[0.96, -1.93, 0.22] -> [-63.55, -46.23, 127.32, -127.32, 0.00]
[-0.14, -0.19, 0.21] -> [-126.38, -154.03, 18.68, -18.68, 0.00]
[-0.31, -1.51, -0.51] -> [-101.60, -78.42, 111.98, -111.98, 0.00]
[-1.18, -0.98, 1.53] -> [-140.29, -36.78, 68.31, -68.31, 0.00]
[-0.13, 0.5, -1.38] -> [104.57, -92.35, 150.80, -150.80, 0.00]
[-1.27, 0.85, -0.77] -> [146.21, -72.38, 133.62, -133.62, 0.00]
[-0.46, 0.12, 1.63] -> [165.38, -28.72, 16.63, -16.63, 0.00]
[-1.79, 0.26, 0.92] -> [171.74, -51.59, 81.88, -81.88, 0.00]
[1.17, 0.9, 0.54] -> [37.57, -75.77, 63.08, -63.08, 0.00]
[-0.69, 0.4, 0.84] -> [149.90, -92.33, 18.03, -18.03, 0.00]
[-0.86, 0.9, 1.37] -> [133.70, -49.91, 47.07, -47.07, 0.00]
[0.87, 0.64, 0.19] -> [36.34, -101.72, 50.30, -50.30, 0.00]
[1.6, 0.37, 0.77] -> [13.02, -62.58, 70.78, -70.78, 0.00]
[-0.34, 0.7, 1.44] -> [115.91, -49.15, 22.72, -22.72, 0.00]
[0.62, -1.32, -0.83] -> [-64.84, -74.52, 133.86, -133.86, 0.00]
[-0.1, -0.94, -0.43] -> [-96.07, -109.15, 74.76, -74.76, 0.00]
[0.9, -1.35, -0.68] -> [-56.31, -69.39, 133.21, -133.21, 0.00]
[1.65, 1.06, -0.53] -> [32.72, -44.40, 167.11, -167.11, 0.00]
[-0.09, 1.86, 0.05] -> [92.77, -64.35, 105.36, -105.36, 0.00]
[-1.25, 0.02, 0.79] -> [179.08, -76.96, 45.14, -45.14, 0.00]
[0.17, 1.45, 1.13] -> [83.31, -56.04, 57.74, -57.74, 0.00]
[1.32, 1.83, -0.02] -> [54.20, -33.17, 162.31, -162.31, 0.00]
[-0.85, -1.19, 1.51] -> [-125.54, -39.15, 63.25, -63.25, 0.00]
[0.83, -1.32, 1.66] -> [-57.84, -30.43, 73.25, -73.25, 0.00]
[1.33, -0.58, 1.55] -> [-23.56, -37.51, 63.45, -63.45, 0.00]
[-0.83, -0.97, -0.14] -> [-130.55, -94.48, 74.57, -74.57, 0.00]
[1.68, -0.76, -0.17] -> [-24.34, -65.06, 114.68, -114.68, 0.00]
[-0.51, -0.77, 0.45] -> [-123.52, -104.07, 33.41, -33.41, 0.00]
[0.43, 1.29, 0.22] -> [71.57, -87.58, 64.53, -64.53, 0.00]
[1.0, 1.42, 1.23] -> [54.85, -43.70, 77.51, -77.51, 0.00]
[-0.45, 1.45, 1.99] -> [107.24, -15.88, 82.03, -82.03, 0.00]
[1.31, -1.25, 0.43] -> [-43.66, -63.12, 88.72, -88.72, 0.00]
[0.28, 1.25, 1.44] -> [77.37, -45.75, 50.58, -50.58, 0.00]
[1.11, -0.44, 0.99] -> [-21.62, -70.17, 40.61, -40.61, 0.00]
[-0.88, 1.93, 0.93] -> [114.51, -37.68, 108.42, -108.42, 0.00]
[0.05, -1.53, 0.26] -> [-88.13, -78.92, 73.76, -73.76, 0.00]
[0.19, 1.35, 1.05] -> [81.99, -62.30, 51.20, -51.20, 0.00]
[-1.34, -1.39, 0.9] -> [-133.95, -47.19, 91.56, -91.56, 0.00]
[0.03, -0.69, 1.46] -> [-87.51, -46.84, 18.98, -18.98, 0.00]
[0.81, 1.61, 0.32] -> [63.29, -65.18, 90.98, -90.98, 0.00]
[-0.22, -0.96, 0.23] -> [-102.91, -105.99, 44.06, -44.06, 0.00]
[-0.86, 1.74, 1.88] -> [116.30, -10.97, 109.28, -109.28, 0.00]
[-0.6, -1.15, 1.9] -> [-117.55, -22.60, 65.28, -65.28, 0.00]
[0.26, -1.04, 0.01] -> [-75.96, -104.06, 57.32, -57.32, 0.00]
[-1.32, -0.15, 1.48] -> [-173.52, -42.99, 54.29, -54.29, 0.00]
[1.04, -1.32, 0.21] -> [-51.77, -72.46, 85.45, -85.45, 0.00]
[1.93, -1.4, 1.05] -> [-35.96, -18.34, 140.92, -140.92, 0.00]
[-0.65, -0.39, 1.61] -> [-149.04, -37.50, 27.36, -27.36, 0.00]
[1.94, 0.52, 1.42] -> [15.00, -27.30, 101.78, -101.78, 0.00]
[0.03, 0.77, -0.48] -> [87.77, -116.74, 71.51, -71.51, 0.00]
[1.49, 0.88, 1.94] -> [30.57, -14.21, 94.55, -94.55, 0.00]
[-1.26, 1.17, -0.57] -> [137.12, -66.31, 132.18, -132.18, 0.00]
[1.6, 0.9, 1.64] -> [29.36, -24.56, 92.45, -92.45, 0.00]
[-1.19, -1.13, 1.18] -> [-136.48, -48.61, 70.26, -70.26, 0.00]
[0.86, -0.62, -0.31] -> [-35.79, -104.67, 72.69, -72.69, 0.00]
[1.0, 0.96, 0.38] -> [43.83, -83.48, 61.23, -61.23, 0.00]
[1.89, 0.46, -0.34] -> [13.68, -55.97, 137.19, -137.19, 0.00]
[-0.55, 1.31, 0.75] -> [112.77, -71.86, 56.24, -56.24, 0.00]
[-0.92, 1.65, 1.03] -> [119.14, -45.09, 88.01, -88.01, 0.00]
[-0.98, 0.96, -0.87] -> [135.59, -78.28, 130.91, -130.91, 0.00]
[1.23, 0.84, 1.24] -> [34.33, -50.56, 60.57, -60.57, 0.00]
[0.53, 0.14, -1.0] -> [14.80, -112.78, 103.79, -103.79, 0.00]
[1.12, -0.46, 1.22] -> [-22.33, -58.28, 42.85, -42.85, 0.00]
[-1.06, 1.81, -0.02] -> [120.35, -49.56, 132.75, -132.75, 0.00]
[-0.22, 1.06, 1.84] -> [101.73, -26.40, 51.59, -51.59, 0.00]
[-0.76, 1.24, 0.18] -> [121.50, -83.63, 71.58, -71.58, 0.00]
[0.65, 0.74, -0.26] -> [48.70, -108.64, 66.68, -66.68, 0.00]
[-0.02, -1.5, 0.84] -> [-90.76, -65.80, 60.57, -60.57, 0.00]
[-0.56, -0.6, 0.84] -> [-133.03, -91.35, 19.35, -19.35, 0.00]
[-1.1, -0.45, 0.62] -> [-157.75, -85.78, 43.91, -43.91, 0.00]
[0.87, 0.76, -1.18] -> [41.14, -72.48, 159.21, -159.21, 0.00]
[-0.86, -0.78, -0.8] -> [-137.79, -91.99, 110.37, -110.37, 0.00]
[1.78, -0.93, -0.06] -> [-27.59, -55.52, 124.61, -124.61, 0.00]
[-1.94, 0.14, 1.77] -> [175.87, -15.66, 105.49, -105.49, 0.00]
[0.9, 1.28, 0.34] -> [54.89, -76.06, 73.61, -73.61, 0.00]
[1.32, -0.63, 1.73] -> [-25.51, -28.91, 69.13, -69.13, 0.00]
[-1.43, 1.49, 1.41] -> [133.82, -25.38, 106.79, -106.79, 0.00]
[-1.67, 0.15, 0.79] -> [174.87, -60.63, 73.01, -73.01, 0.00]
[-0.71, -0.69, 0.63] -> [-135.82, -94.32, 32.34, -32.34, 0.00]
[-0.86, 0.47, 0.74] -> [151.34, -89.97, 29.78, -29.78, 0.00]
[1.84, 1.04, 1.77] -> [29.48, -8.97, 122.03, -122.03, 0.00]
[-0.82, -1.32, -0.51] -> [-121.85, -77.73, 112.90, -112.90, 0.00]
[0.55, 0.48, 0.07] -> [41.11, -121.92, 39.89, -39.89, 0.00]
[0.71, -0.08, 1.95] -> [-6.43, -16.80, 40.28, -40.28, 0.00]
[-1.56, -1.31, 1.35] -> [-139.98, -28.67, 103.16, -103.16, 0.00]
[-1.64, 1.59, 0.28] -> [135.89, -36.14, 142.71, -142.71, 0.00]
[1.86, 1.55, 1.08] -> [39.81, -14.11, 147.99, -147.99, 0.00]
[-0.51, -0.61, 0.93] -> [-129.90, -86.46, 17.15, -17.15, 0.00]
[0.85, 0.26, 0.23] -> [17.01, -111.15, 39.51, -39.51, 0.00]
[-1.05, 1.67, 1.04] -> [122.16, -41.40, 94.87, -94.87, 0.00]
[-1.56, 1.24, 1.28] -> [141.52, -32.87, 98.26, -98.26, 0.00]
[0.93, -1.51, 1.69] -> [-58.37, -24.20, 89.09, -89.09, 0.00]
[0.71, 1.25, 0.77] -> [60.40, -70.54, 57.10, -57.10, 0.00]
[-1.87, -0.35, -0.2] -> [-169.40, -61.24, 122.01, -122.01, 0.00]
[1.12, -0.2, -0.44] -> [-10.12, -99.81, 83.77, -83.77, 0.00]
[-0.94, -0.7, 1.89] -> [-143.33, -23.72, 58.13, -58.13, 0.00]
[0.13, 1.66, 1.79] -> [85.52, -22.44, 84.36, -84.36, 0.00]
[1.32, 0.8, 0.85] -> [31.22, -63.86, 63.39, -63.39, 0.00]
[1.57, 0.51, 0.13] -> [18.00, -74.71, 86.16, -86.16, 0.00]
[-0.45, -0.79, 0.48] -> [-119.67, -103.88, 31.77, -31.77, 0.00]
[0.89, 1.09, 0.54] -> [50.77, -78.75, 58.71, -58.71, 0.00]
[0.01, 0.6, -0.03] -> [89.05, -129.53, 40.49, -40.49, 0.00]
[-1.89, -0.57, -0.04] -> [-163.22, -57.83, 119.91, -119.91, 0.00]
[0.2, -0.63, -0.97] -> [-72.39, -109.36, 104.18, -104.18, 0.00]
[0.7, -1.03, 0.84] -> [-55.80, -75.12, 44.39, -44.39, 0.00]
[0.24, -0.54, 0.12] -> [-66.04, -129.86, 32.52, -32.52, 0.00]
[-1.34, 1.46, 1.85] -> [132.55, -10.87, 111.82, -111.82, 0.00]
[-0.93, 1.05, -0.93] -> [131.53, -73.44, 141.10, -141.10, 0.00]
[0.1, 1.58, 0.08] -> [86.38, -78.44, 83.45, -83.45, 0.00]
[-0.27, -0.48, 1.85] -> [-119.36, -18.08, 29.71, -29.71, 0.00]
[-0.38, 0.75, 0.36] -> [116.87, -111.12, 32.32, -32.32, 0.00]
[0.1, -0.34, 1.89] -> [-73.61, -8.48, 26.47, -26.47, 0.00]
[1.34, -0.11, 0.92] -> [-4.69, -68.35, 50.10, -50.10, 0.00]
[-1.33, 0.7, 0.73] -> [152.24, -69.29, 61.80, -61.80, 0.00]
[0.93, -0.5, 1.22] -> [-28.26, -61.42, 33.63, -33.63, 0.00]
[0.65, -1.32, -0.37] -> [-63.78, -83.91, 98.09, -98.09, 0.00]
[-0.85, -1.73, 1.45] -> [-116.17, -29.15, 95.41, -95.41, 0.00]
[1.57, 0.92, 0.98] -> [30.37, -49.34, 82.59, -82.59, 0.00]
[0.04, -0.5, 1.73] -> [-85.43, -23.37, 22.24, -22.24, 0.00]
[-0.98, 1.16, 0.96] -> [130.19, -60.88, 61.27, -61.27, 0.00]
[-1.4, 0.55, 0.13] -> [158.55, -81.81, 76.46, -76.46, 0.00]
[-1.23, -0.53, -1.06] -> [-156.69, -68.86, 156.23, -156.23, 0.00]
[0.55, 0.89, -0.04] -> [58.28, -105.65, 58.37, -58.37, 0.00]
[-0.64, 0.65, 1.11] -> [134.56, -71.04, 24.17, -24.17, 0.00]
[-1.52, 1.44, -0.25] -> [136.55, -45.08, 151.52, -151.52, 0.00]
[1.23, -1.47, 1.9] -> [-50.08, -10.87, 107.95, -107.95, 0.00]
[-0.47, -0.23, 1.37] -> [-153.92, -50.70, 8.08, -8.08, 0.00]
[-1.85, -0.86, 0.04] -> [-155.07, -53.88, 122.65, -122.65, 0.00]
[-0.93, -0.34, -0.78] -> [-159.92, -100.70, 100.43, -100.43, 0.00]
[1.21, 0.93, -0.89] -> [37.55, -66.37, 149.42, -149.42, 0.00]
[1.38, -1.7, -0.14] -> [-50.93, -37.67, 159.67, -159.67, 0.00]
[-1.83, -1.17, 1.94] -> [-147.41, 2.37, 137.93, -137.93, 0.00]
[1.28, 1.82, 1.21] -> [54.88, -24.44, 120.33, -120.33, 0.00]
[0.85, 1.31, -0.6] -> [57.02, -75.48, 120.43, -120.43, 0.00]
[-0.97, 0.81, 0.87] -> [140.14, -73.22, 45.31, -45.31, 0.00]
[1.19, -0.68, -0.8] -> [-29.74, -80.92, 123.58, -123.58, 0.00]
[0.88, -0.06, -1.13] -> [-3.90, -92.99, 129.03, -129.03, 0.00]
[0.34, 1.05, 1.44] -> [72.06, -48.14, 40.25, -40.25, 0.00]
[1.17, -0.06, -1.01] -> [-2.94, -83.81, 131.92, -131.92, 0.00]
[0.4, -0.42, -0.24] -> [-46.40, -129.18, 51.50, -51.50, 0.00]
[1.85, 0.86, 1.54] -> [24.93, -21.55, 107.26, -107.26, 0.00]
[0.54, 1.47, 0.04] -> [69.83, -79.56, 83.89, -83.89, 0.00]
[-1.61, -1.24, -0.32] -> [-142.40, -48.93, 148.15, -148.15, 0.00]
[-1.48, 0.04, -0.87] -> [178.45, -71.14, 140.98, -140.98, 0.00]
[0.53, 0.23, 1.1] -> [23.46, -77.71, 4.95, -4.95, 0.00]
[-1.42, -0.79, 0.32] -> [-150.91, -73.60, 78.21, -78.21, 0.00]
[-1.23, -0.95, 1.54] -> [-142.32, -35.90, 69.87, -69.87, 0.00]
[0.44, -1.24, 1.69] -> [-70.46, -32.80, 59.06, -59.06, 0.00]
[-1.61, 1.14, 0.22] -> [144.70, -57.41, 108.32, -108.32, 0.00]
[-1.59, -0.58, 1.67] -> [-159.96, -27.09, 82.62, -82.62, 0.00]
[-0.57, 0.88, -0.68] -> [122.93, -100.29, 95.49, -95.49, 0.00]
[-0.67, -1.75, -0.04] -> [-110.95, -63.79, 110.48, -110.48, 0.00]
[-0.26, 1.27, -0.73] -> [101.57, -86.96, 112.38, -112.38, 0.00]
[1.34, 1.81, 1.04] -> [53.49, -27.80, 122.37, -122.37, 0.00]
[-1.56, -1.07, 0.7] -> [-145.55, -53.97, 90.09, -90.09, 0.00]
[-1.69, -1.21, 0.06] -> [-144.40, -51.39, 125.90, -125.90, 0.00]
[-0.76, 0.24, -0.53] -> [162.47, -114.71, 75.55, -75.55, 0.00]
[1.51, 1.1, 1.76] -> [36.07, -18.54, 98.65, -98.65, 0.00]
[0.09, 1.42, 1.03] -> [86.37, -61.30, 54.98, -54.98, 0.00]
[-0.83, 1.69, 1.04] -> [116.16, -45.02, 87.52, -87.52, 0.00]
[0.79, 0.43, 0.21] -> [28.56, -110.89, 40.80, -40.80, 0.00]
[0.23, -1.75, 1.08] -> [-82.51, -48.10, 78.61, -78.61, 0.00]
[1.66, 0.96, 0.17] -> [30.04, -60.77, 105.27, -105.27, 0.00]
[1.19, -0.96, 0.23] -> [-38.89, -79.43, 74.59, -74.59, 0.00]
[-0.07, -0.81, -0.26] -> [-94.94, -117.18, 59.97, -59.97, 0.00]
[1.35, -0.77, 0.3] -> [-29.70, -77.22, 74.06, -74.06, 0.00]
[0.0, -0.02, -0.18] -> [-90.00, -159.15, 39.76, -39.76, 0.00]
[-0.74, -0.42, -1.06] -> [-150.42, -97.74, 119.63, -119.63, 0.00]
[-0.07, -1.81, 1.07] -> [-92.21, -46.76, 82.04, -82.04, 0.00]
[0.72, 1.04, 0.86] -> [55.30, -73.59, 45.45, -45.45, 0.00]
[1.11, -0.15, 0.99] -> [-7.70, -72.45, 36.13, -36.13, 0.00]
[-1.43, 0.74, -0.72] -> [152.64, -68.76, 136.26, -136.26, 0.00]
[-0.52, -0.02, -1.31] -> [-177.80, -98.25, 138.12, -138.12, 0.00]
[-1.24, 0.61, -0.66] -> [153.81, -84.13, 112.19, -112.19, 0.00]
[-0.59, -1.66, -0.3] -> [-109.57, -68.78, 115.29, -115.29, 0.00]
[0.49, -1.27, 1.97] -> [-68.90, -18.67, 71.71, -71.71, 0.00]
[-1.3, 1.85, 1.18] -> [125.10, -23.31, 124.29, -124.29, 0.00]
[0.86, 1.62, -0.13] -> [62.04, -65.83, 111.61, -111.61, 0.00]
[0.99, 1.16, 1.67] -> [49.52, -30.63, 71.30, -71.30, 0.00]
[1.45, 0.47, 1.91] -> [17.96, -19.55, 79.23, -79.23, 0.00]
[-1.65, -0.43, 1.77] -> [-165.39, -22.43, 86.54, -86.54, 0.00]
[-0.54, -1.68, 1.84] -> [-107.82, -17.89, 93.30, -93.30, 0.00]
[-1.68, 0.04, 1.28] -> [178.64, -43.54, 74.00, -74.00, 0.00]
[0.86, -1.72, 1.52] -> [-63.43, -26.62, 96.50, -96.50, 0.00]
[1.08, 0.27, -0.83] -> [14.04, -93.50, 110.37, -110.37, 0.00]
[-1.02, -1.29, 1.36] -> [-128.33, -41.37, 72.56, -72.56, 0.00]
[-0.66, -0.45, 1.07] -> [-145.71, -76.31, 17.36, -17.36, 0.00]
[-1.07, 1.67, -0.0] -> [122.65, -57.37, 118.77, -118.77, 0.00]
[0.83, -1.35, 1.12] -> [-58.42, -52.67, 66.00, -66.00, 0.00]
[1.66, 0.02, 1.27] -> [0.69, -44.54, 72.45, -72.45, 0.00]
[-0.52, 0.97, 0.75] -> [118.19, -84.48, 36.64, -36.64, 0.00]
[1.09, -1.04, 1.1] -> [-43.66, -55.88, 60.65, -60.65, 0.00]
[0.22, 0.61, -0.53] -> [70.17, -121.52, 71.02, -71.02, 0.00]
[0.12, 1.25, -0.26] -> [84.52, -95.35, 79.50, -79.50, 0.00]
[-0.31, 1.48, 1.41] -> [101.83, -42.60, 64.47, -64.47, 0.00]
[0.4, -1.33, 1.71] -> [-73.26, -30.92, 64.00, -64.00, 0.00]
[-0.86, -1.83, 0.99] -> [-115.17, -40.73, 99.11, -99.11, 0.00]
[1.04, -0.32, -0.84] -> [-17.10, -94.43, 109.94, -109.94, 0.00]
[-1.09, 1.22, 1.97] -> [131.78, -14.83, 89.01, -89.01, 0.00]
[0.65, -1.87, 1.43] -> [-70.83, -28.02, 99.45, -99.45, 0.00]
[0.95, 1.7, 0.75] -> [60.80, -50.29, 94.06, -94.06, 0.00]
[0.02, -1.65, -0.76] -> [-89.31, -63.85, 145.99, -145.99, 0.00]
[-0.45, -0.77, 1.93] -> [-120.30, -20.58, 46.44, -46.44, 0.00]
[1.23, 1.8, 0.05] -> [55.65, -43.65, 139.79, -139.79, 0.00]
[1.2, 1.45, -0.23] -> [50.39, -62.21, 121.90, -121.90, 0.00]
[0.16, -1.79, 1.32] -> [-84.89, -38.40, 83.01, -83.01, 0.00]
[0.42, -1.24, -0.91] -> [-71.29, -80.37, 130.41, -130.41, 0.00]
[-0.38, -0.0, -0.13] -> [-180.00, -141.16, 40.50, -40.50, 0.00]
[1.58, 1.85, 1.09] -> [49.50, -12.58, 150.60, -150.60, 0.00]
[-0.28, -1.86, 1.98] -> [-98.56, -8.34, 108.28, -108.28, 0.00]
[-1.45, 1.14, 0.54] -> [141.83, -59.54, 88.93, -88.93, 0.00]
[0.55, -0.73, 1.01] -> [-53.00, -77.42, 23.90, -23.90, 0.00]
[-1.66, 0.24, -0.1] -> [171.77, -74.42, 97.68, -97.68, 0.00]
[-1.7, -1.69, 1.09] -> [-135.17, -16.16, 143.39, -143.39, 0.00]
[-0.18, 1.46, 0.99] -> [97.03, -61.34, 58.10, -58.10, 0.00]
[-0.2, 1.29, 0.09] -> [98.81, -91.81, 66.14, -66.14, 0.00]
[1.87, -1.41, 0.65] -> [-37.02, -29.43, 138.14, -138.14, 0.00]
[0.89, 0.05, 0.84] -> [3.22, -88.47, 23.40, -23.40, 0.00]
[0.38, 1.94, 0.72] -> [78.92, -49.62, 96.89, -96.89, 0.00]
[-0.44, -0.14, -0.8] -> [-162.35, -122.84, 85.55, -85.55, 0.00]
[1.82, 0.52, 1.89] -> [15.95, -12.09, 105.46, -105.46, 0.00]
[1.14, 1.38, -0.22] -> [50.44, -67.86, 112.84, -112.84, 0.00]
[-1.2, 0.79, -0.52] -> [146.64, -83.89, 105.46, -105.46, 0.00]
[0.62, -0.83, -0.48] -> [-53.24, -104.22, 81.58, -81.58, 0.00]
[-0.76, -1.72, 1.59] -> [-113.84, -25.24, 94.68, -94.68, 0.00]
[1.29, -0.73, 0.18] -> [-29.51, -82.30, 73.31, -73.31, 0.00]
[-0.65, -0.45, -0.15] -> [-145.30, -118.89, 53.20, -53.20, 0.00]
[-1.15, 1.93, 1.76] -> [120.79, -1.94, 138.73, -138.73, 0.00]
[0.56, -1.16, -0.45] -> [-64.23, -92.35, 92.07, -92.07, 0.00]
[1.18, 0.85, 0.75] -> [35.77, -70.56, 58.39, -58.39, 0.00]
[-1.21, -0.15, 1.5] -> [-172.93, -43.57, 48.27, -48.27, 0.00]
[-1.68, 0.6, -0.32] -> [160.35, -67.23, 118.54, -118.54, 0.00]
[-0.97, 0.68, 0.01] -> [144.97, -98.43, 62.92, -62.92, 0.00]
[0.14, -0.57, 1.18] -> [-76.20, -69.69, 6.53, -6.53, 0.00]
[-1.77, 0.17, 0.5] -> [174.51, -63.36, 84.68, -84.68, 0.00]
[0.33, 0.32, 0.34] -> [44.12, -136.39, 17.50, -17.50, 0.00]
[1.2, 0.34, -0.71] -> [15.82, -89.97, 107.85, -107.85, 0.00]
[-1.5, -1.4, -0.38] -> [-136.97, -43.40, 161.06, -161.06, 0.00]
[1.4, 0.09, 0.04] -> [3.68, -87.52, 73.73, -73.73, 0.00]
[0.49, 1.55, 1.49] -> [72.46, -36.43, 73.59, -73.59, 0.00]
[-0.35, -1.53, 1.65] -> [-102.89, -30.68, 73.65, -73.65, 0.00]
[1.05, -0.91, -0.58] -> [-40.91, -85.35, 106.65, -106.65, 0.00]
[-1.95, 1.02, 0.64] -> [152.39, -39.41, 119.76, -119.76, 0.00]
[0.61, 1.14, 0.33] -> [61.85, -88.83, 57.12, -57.12, 0.00]
[0.14, 1.45, 0.82] -> [84.49, -68.10, 57.88, -57.88, 0.00]
[-1.62, 0.76, 0.49] -> [154.87, -63.04, 85.74, -85.74, 0.00]
[0.23, 1.35, -0.63] -> [80.33, -85.43, 109.07, -109.07, 0.00]
[-0.4, -0.75, 1.17] -> [-118.07, -68.12, 21.14, -21.14, 0.00]
[-0.92, -0.76, -0.57] -> [-140.44, -95.37, 94.79, -94.79, 0.00]
[-0.87, -1.92, 1.18] -> [-114.38, -31.24, 107.76, -107.76, 0.00]
[-0.42, 1.81, -0.01] -> [103.06, -64.68, 107.69, -107.69, 0.00]
[-0.66, 1.7, 0.77] -> [111.22, -55.20, 83.99, -83.99, 0.00]
[-0.17, -0.01, -1.14] -> [-176.63, -120.03, 110.85, -110.85, 0.00]
[0.42, 0.94, 0.22] -> [65.92, -103.83, 46.64, -46.64, 0.00]
[-0.37, 0.57, 1.34] -> [122.99, -55.95, 14.93, -14.93, 0.00]
[-1.44, 0.79, 0.76] -> [151.25, -62.87, 70.89, -70.89, 0.00]
[-0.22, -0.58, -0.69] -> [-110.77, -119.29, 81.10, -81.10, 0.00]
[1.37, -0.57, -0.69] -> [-22.59, -77.73, 121.97, -121.97, 0.00]
[0.0, 1.07, 0.43] -> [90.00, -97.18, 41.73, -41.73, 0.00]
[-1.71, -0.81, -0.15] -> [-154.65, -62.30, 117.99, -117.99, 0.00]
[0.42, 0.53, 1.35] -> [51.60, -55.12, 15.02, -15.02, 0.00]
[1.45, 0.72, -0.32] -> [26.41, -76.59, 105.20, -105.20, 0.00]
[-1.72, -0.98, 1.81] -> [-150.33, -12.72, 110.06, -110.06, 0.00]
[-0.77, -0.03, 1.41] -> [-177.77, -51.24, 21.49, -21.49, 0.00]
[1.81, 0.09, 1.67] -> [2.85, -23.98, 91.46, -91.46, 0.00]
[0.52, 0.98, -0.49] -> [62.05, -100.58, 85.50, -85.50, 0.00]
[-0.23, -0.29, -1.32] -> [-128.42, -103.32, 135.24, -135.24, 0.00]
[0.72, -0.07, 0.97] -> [-5.55, -85.94, 12.86, -12.86, 0.00]
[-0.63, -1.07, 1.02] -> [-120.49, -67.30, 43.55, -43.55, 0.00]
[-0.1, -1.54, -0.58] -> [-93.72, -76.99, 117.37, -117.37, 0.00]
[-0.64, 1.78, 0.61] -> [109.78, -55.95, 91.40, -91.40, 0.00]
[0.92, -1.24, -0.36] -> [-53.43, -80.22, 102.30, -102.30, 0.00]
[-1.16, 0.35, 0.77] -> [163.21, -79.24, 43.02, -43.02, 0.00]
[1.19, 1.51, 0.51] -> [51.76, -56.40, 95.81, -95.81, 0.00]
[-0.72, 0.21, 1.0] -> [163.74, -82.82, 14.36, -14.36, 0.00]
[0.44, -1.0, 1.15] -> [-66.25, -64.64, 35.08, -35.08, 0.00]
[0.98, -0.88, 0.39] -> [-41.92, -86.44, 56.82, -56.82, 0.00]
[1.75, 1.11, 1.88] -> [32.39, -5.86, 122.26, -122.26, 0.00]
[0.81, -0.81, -0.96] -> [-45.00, -87.43, 124.53, -124.53, 0.00]
[-0.86, 0.79, 0.05] -> [137.43, -98.95, 60.36, -60.36, 0.00]
[-1.24, -1.37, -0.24] -> [-132.15, -64.25, 119.23, -119.23, 0.00]
[1.9, -0.87, 0.79] -> [-24.60, -42.60, 106.28, -106.28, 0.00]
[-0.28, 1.28, 0.32] -> [102.34, -88.21, 58.43, -58.43, 0.00]
[-1.43, -1.5, 1.38] -> [-133.63, -26.15, 106.93, -106.93, 0.00]
[-1.26, 0.48, 0.89] -> [159.15, -69.42, 50.48, -50.48, 0.00]
[-1.24, -1.39, -0.48] -> [-131.74, -58.49, 139.95, -139.95, 0.00]
[0.31, 1.69, 0.02] -> [79.61, -72.05, 95.30, -95.30, 0.00]
[0.81, 0.63, 0.07] -> [37.87, -105.93, 52.52, -52.52, 0.00]
[-1.28, 0.98, 0.24] -> [142.56, -75.37, 79.75, -79.75, 0.00]
[-1.52, -1.93, 1.25] -> [-128.22, -4.23, 159.92, -159.92, 0.00]
[1.96, 0.19, 1.93] -> [5.54, -7.70, 114.04, -114.04, 0.00]
[0.16, 1.19, -0.93] -> [82.34, -85.68, 124.88, -124.88, 0.00]
[-0.64, 1.56, 0.32] -> [112.31, -70.73, 82.46, -82.46, 0.00]
[-0.5, -0.39, -0.65] -> [-142.05, -119.64, 78.67, -78.67, 0.00]
[-0.26, 0.25, -1.46] -> [136.12, -88.37, 166.58, -166.58, 0.00]
[1.54, -0.47, 0.38] -> [-16.97, -73.28, 75.57, -75.57, 0.00]
[0.08, 1.84, 1.65] -> [87.51, -23.96, 93.19, -93.19, 0.00]
[-0.2, -0.47, 1.57] -> [-113.05, -34.24, 15.25, -15.25, 0.00]
[-0.27, -1.33, 0.08] -> [-101.48, -89.40, 69.47, -69.47, 0.00]
[1.69, -0.93, 1.77] -> [-28.82, -16.19, 104.09, -104.09, 0.00]
[-1.13, 0.72, 1.25] -> [147.50, -53.87, 51.13, -51.13, 0.00]
[0.92, 1.22, 1.39] -> [52.98, -43.10, 65.16, -65.16, 0.00]
[0.44, -1.85, 1.89] -> [-76.62, -11.81, 106.22, -106.22, 0.00]
[0.82, -1.74, 1.88] -> [-64.77, -11.55, 107.73, -107.73, 0.00]
[-1.94, 0.81, 1.91] -> [157.34, -3.03, 127.12, -127.12, 0.00]
[-0.01, -1.89, 0.38] -> [-90.30, -60.04, 96.24, -96.24, 0.00]
[-1.66, -0.4, 1.03] -> [-166.45, -51.84, 74.30, -74.30, 0.00]
[1.68, -0.97, 1.08] -> [-30.00, -41.52, 92.24, -92.24, 0.00]
[1.79, -1.36, 1.96] -> [-37.23, 9.59, 152.93, -152.93, 0.00]
[-0.54, -0.58, -1.06] -> [-132.95, -100.35, 117.21, -117.21, 0.00]
[-0.9, 0.68, -0.04] -> [142.93, -101.53, 62.28, -62.28, 0.00]
[-0.34, 0.29, 0.64] -> [139.54, -126.74, 4.23, -4.23, 0.00]
[-0.05, 1.94, -0.37] -> [91.48, -55.54, 139.35, -139.35, 0.00]
[0.28, -1.19, 0.87] -> [-76.76, -74.68, 42.78, -42.78, 0.00]
[1.16, 1.52, 0.64] -> [52.65, -54.37, 92.58, -92.58, 0.00]
[1.67, 0.95, 1.27] -> [29.63, -35.94, 92.12, -92.12, 0.00]
[-0.29, 0.74, -0.77] -> [111.40, -109.75, 92.13, -92.13, 0.00]
[-1.85, -0.68, 0.31] -> [-159.82, -56.72, 105.15, -105.15, 0.00]
[0.16, 1.09, -0.65] -> [81.65, -98.37, 95.80, -95.80, 0.00]
[-0.13, 1.6, 1.05] -> [94.65, -54.64, 67.15, -67.15, 0.00]
[1.85, -0.97, 1.11] -> [-27.67, -34.25, 105.48, -105.48, 0.00]
[-0.35, -0.58, -0.27] -> [-121.11, -123.91, 56.03, -56.03, 0.00]
[0.05, -0.26, -1.19] -> [-79.11, -114.57, 117.07, -117.07, 0.00]
[-0.53, -1.48, 0.51] -> [-109.70, -72.33, 69.96, -69.96, 0.00]
[-1.27, 1.07, 0.39] -> [139.89, -70.78, 78.78, -78.78, 0.00]
[-1.13, -0.29, 1.99] -> [-165.61, -18.68, 62.00, -62.00, 0.00]
[-1.76, 0.58, -0.33] -> [161.76, -62.73, 125.87, -125.87, 0.00]
[0.38, 1.03, 1.71] -> [69.75, -33.30, 47.62, -47.62, 0.00]
[1.8, 0.51, 0.96] -> [15.82, -47.94, 86.57, -86.57, 0.00]
[0.3, 1.05, -1.11] -> [74.05, -82.93, 139.41, -139.41, 0.00]
[-1.26, 1.22, -0.39] -> [135.92, -68.06, 120.67, -120.67, 0.00]
[-1.27, -0.4, -0.94] -> [-162.52, -77.64, 135.79, -135.79, 0.00]
[1.34, 1.89, 0.57] -> [54.66, -32.36, 136.31, -136.31, 0.00]
[1.54, -0.46, 1.81] -> [-16.63, -22.72, 81.07, -81.07, 0.00]
[0.13, 0.95, 1.22] -> [82.21, -63.08, 28.00, -28.00, 0.00]
[0.06, 0.99, -1.16] -> [86.53, -85.55, 139.57, -139.57, 0.00]
[0.49, -0.61, 0.63] -> [-51.23, -104.78, 21.06, -21.06, 0.00]
[-1.53, -1.22, 1.3] -> [-141.43, -33.56, 95.44, -95.44, 0.00]
[-0.99, -0.89, -0.24] -> [-138.04, -91.70, 82.55, -82.55, 0.00]
[0.48, 1.38, 1.62] -> [70.82, -34.08, 65.86, -65.86, 0.00]
[0.57, 0.53, -1.0] -> [42.92, -103.34, 110.78, -110.78, 0.00]
[-0.05, 1.56, -0.59] -> [91.84, -75.76, 119.54, -119.54, 0.00]
[-0.25, 0.59, 1.76] -> [112.96, -25.83, 28.60, -28.60, 0.00]
[0.62, -1.49, 0.69] -> [-67.41, -66.01, 69.73, -69.73, 0.00]
[1.21, 0.78, 1.21] -> [32.81, -53.18, 57.03, -57.03, 0.00]
[-1.29, -0.75, 1.98] -> [-149.83, -16.72, 79.97, -79.97, 0.00]
[-0.57, 1.47, 0.49] -> [111.19, -72.58, 70.70, -70.70, 0.00]
[1.14, 1.47, 0.55] -> [52.21, -58.61, 89.97, -89.97, 0.00]
[-1.04, 0.13, -1.13] -> [172.87, -84.25, 139.09, -139.09, 0.00]
[1.92, -0.1, 1.16] -> [-2.98, -39.63, 91.22, -91.22, 0.00]
[0.09, 0.42, -1.3] -> [77.91, -102.51, 133.82, -133.82, 0.00]
[-1.5, -1.35, -0.28] -> [-138.01, -51.50, 141.77, -141.77, 0.00]
[1.22, -0.45, 1.19] -> [-20.25, -57.67, 48.04, -48.04, 0.00]
[0.03, 1.75, -0.44] -> [89.02, -67.41, 124.07, -124.07, 0.00]
[0.41, -0.56, 0.86] -> [-53.79, -95.43, 11.94, -11.94, 0.00]
[0.48, -1.68, 0.44] -> [-74.05, -65.91, 83.73, -83.73, 0.00]
[0.27, 1.27, 1.0] -> [78.00, -66.47, 47.06, -47.06, 0.00]
[1.16, -0.92, -0.26] -> [-38.42, -84.17, 92.45, -92.45, 0.00]
[1.61, -0.89, -0.58] -> [-28.93, -56.40, 148.52, -148.52, 0.00]
[-0.76, 1.31, -0.4] -> [120.12, -81.38, 102.75, -102.75, 0.00]
[0.53, 0.32, -0.24] -> [31.12, -127.17, 52.59, -52.59, 0.00]
[1.18, 0.26, -0.5] -> [12.43, -95.66, 90.97, -90.97, 0.00]
[0.05, -0.51, 0.79] -> [-84.40, -110.74, 3.08, -3.08, 0.00]
[1.1, 0.08, -0.87] -> [4.16, -92.80, 113.34, -113.34, 0.00]
[0.02, -1.65, 1.7] -> [-89.31, -26.75, 80.52, -80.52, 0.00]
[0.75, 1.86, 1.25] -> [68.04, -33.38, 99.02, -99.02, 0.00]
[-1.01, -0.49, 0.68] -> [-154.12, -86.42, 38.98, -38.98, 0.00]
[0.07, 1.69, 0.66] -> [87.63, -63.58, 75.56, -75.56, 0.00]
[-0.01, -0.77, -1.04] -> [-90.74, -102.15, 114.33, -114.33, 0.00]
[-0.9, -1.01, 1.02] -> [-131.70, -63.91, 50.49, -50.49, 0.00]
[1.0, 1.13, -0.21] -> [48.49, -82.91, 91.63, -91.63, 0.00]
[-0.97, 0.38, 1.54] -> [158.61, -42.92, 39.35, -39.35, 0.00]
[-0.83, 1.75, 0.78] -> [115.37, -50.04, 92.88, -92.88, 0.00]
[-0.18, 1.06, -0.33] -> [99.64, -103.81, 74.47, -74.47, 0.00]
[-1.4, 1.08, 1.35] -> [142.35, -38.17, 81.27, -81.27, 0.00]
[0.09, 1.52, -0.29] -> [86.61, -81.87, 96.80, -96.80, 0.00]
[1.99, 0.13, -0.13] -> [3.74, -55.89, 127.29, -127.29, 0.00]
[-1.41, 0.21, 1.15] -> [171.53, -56.17, 55.64, -55.64, 0.00]
[0.74, -1.07, -0.76] -> [-55.33, -85.93, 115.20, -115.20, 0.00]
[-0.83, -1.89, -0.32] -> [-113.71, -45.41, 154.37, -154.37, 0.00]
[1.73, 0.73, 1.67] -> [22.88, -22.05, 96.63, -96.63, 0.00]
[-1.32, -1.89, 1.22] -> [-124.93, -19.33, 130.43, -130.43, 0.00]
[0.35, 0.64, -0.47] -> [61.33, -118.82, 69.57, -69.57, 0.00]
[-1.27, 1.68, 0.05] -> [127.09, -49.43, 129.70, -129.70, 0.00]
[-1.53, 1.46, 1.9] -> [136.34, -2.90, 128.10, -128.10, 0.00]
[-0.38, 1.61, 0.13] -> [103.28, -74.54, 86.40, -86.40, 0.00]
[1.29, -1.66, 0.57] -> [-52.15, -46.18, 110.76, -110.76, 0.00]
[1.22, -1.02, 1.97] -> [-39.90, -15.67, 85.90, -85.90, 0.00]
[0.08, 1.09, 0.55] -> [85.80, -92.44, 39.87, -39.87, 0.00]
[-1.18, -0.2, 0.4] -> [-170.38, -91.83, 49.59, -49.59, 0.00]
[0.34, -1.55, 0.33] -> [-77.63, -75.21, 75.36, -75.36, 0.00]
[-0.69, -1.12, 1.63] -> [-121.64, -35.77, 57.28, -57.28, 0.00]
[-0.29, 0.75, 0.79] -> [111.14, -95.11, 19.06, -19.06, 0.00]
[-1.73, -0.43, 0.45] -> [-166.04, -64.09, 86.12, -86.12, 0.00]
[-1.48, 0.97, 1.99] -> [146.76, -10.97, 99.61, -99.61, 0.00]
[-0.48, 1.91, 1.25] -> [104.11, -34.81, 95.91, -95.91, 0.00]
[-0.36, 1.66, 1.38] -> [102.24, -39.05, 76.67, -76.67, 0.00]
[-0.25, 1.22, -0.09] -> [101.58, -95.92, 70.55, -70.55, 0.00]
[1.6, -1.59, -0.05] -> [-44.82, -31.22, 167.49, -167.49, 0.00]
[1.29, -1.03, 1.55] -> [-38.61, -33.26, 76.63, -76.63, 0.00]
[1.62, -1.16, -0.07] -> [-35.60, -56.50, 123.48, -123.48, 0.00]
[-0.57, -0.87, -0.48] -> [-123.23, -104.02, 81.76, -81.76, 0.00]
[-0.16, -1.26, 0.68] -> [-97.24, -80.26, 47.77, -47.77, 0.00]
[1.0, 0.11, 1.01] -> [6.28, -74.77, 29.32, -29.32, 0.00]
[-0.76, -0.45, -1.07] -> [-149.37, -95.82, 122.16, -122.16, 0.00]
[1.84, -0.87, -0.31] -> [-25.31, -48.98, 147.57, -147.57, 0.00]
[1.46, -1.46, 1.61] -> [-45.00, -17.80, 111.48, -111.48, 0.00]
[-0.08, -1.67, 0.59] -> [-92.74, -66.14, 75.28, -75.28, 0.00]
[1.74, 0.47, 0.2] -> [15.12, -66.55, 94.78, -94.78, 0.00]
[-1.7, 0.64, -0.26] -> [159.37, -65.95, 117.60, -117.60, 0.00]
[0.6, 0.04, -1.28] -> [3.81, -96.95, 136.55, -136.55, 0.00]
[-1.74, 0.2, -0.07] -> [173.44, -70.51, 101.83, -101.83, 0.00]
[0.46, -0.19, 0.46] -> [-22.44, -130.60, 13.46, -13.46, 0.00]
[-1.88, -0.63, 1.73] -> [-161.47, -16.04, 107.50, -107.50, 0.00]
[0.02, -0.62, -0.32] -> [-88.15, -126.19, 57.27, -57.27, 0.00]
[1.48, -1.46, -0.18] -> [-44.61, -48.63, 141.90, -141.90, 0.00]
[-0.91, 1.83, 0.34] -> [116.44, -52.43, 110.94, -110.94, 0.00]
[0.28, -1.59, 0.87] -> [-80.01, -60.56, 68.09, -68.09, 0.00]
[1.48, 1.08, 1.86] -> [36.12, -15.22, 99.28, -99.28, 0.00]
[-0.63, -0.83, 1.44] -> [-127.20, -48.71, 36.79, -36.79, 0.00]
[-1.0, 1.2, 1.77] -> [129.81, -25.39, 76.74, -76.74, 0.00]
[0.2, -0.37, -1.38] -> [-61.61, -96.55, 146.85, -146.85, 0.00]
[-0.67, 0.37, -1.15] -> [151.09, -97.39, 126.02, -126.02, 0.00]
[1.82, -0.34, -0.18] -> [-10.58, -64.54, 115.94, -115.94, 0.00]
[-0.03, -1.77, -0.52] -> [-90.97, -64.21, 132.88, -132.88, 0.00]
[-1.03, 1.91, 1.07] -> [118.34, -31.48, 113.35, -113.35, 0.00]
[-1.73, -0.7, 0.75] -> [-157.97, -53.88, 87.49, -87.49, 0.00]
[-0.52, -1.54, 1.3] -> [-108.66, -44.34, 70.40, -70.40, 0.00]
[0.79, 0.87, -1.14] -> [47.76, -75.13, 152.20, -152.20, 0.00]
[-1.13, 1.17, -0.45] -> [134.00, -74.62, 114.18, -114.18, 0.00]
[-1.36, 1.6, 1.23] -> [130.36, -30.02, 107.46, -107.46, 0.00]
[1.35, -0.86, -0.26] -> [-32.50, -77.99, 100.45, -100.45, 0.00]
[0.42, -0.96, 1.47] -> [-66.37, -46.92, 37.84, -37.84, 0.00]
[-1.07, -1.79, 1.92] -> [-120.87, -3.36, 125.66, -125.66, 0.00]
[-0.25, 1.33, 1.19] -> [100.65, -56.33, 51.35, -51.35, 0.00]
[-0.54, 0.64, 1.69] -> [130.16, -33.50, 34.02, -34.02, 0.00]
[-0.43, 0.67, 1.22] -> [122.69, -65.17, 18.76, -18.76, 0.00]
[0.4, -0.6, 1.29] -> [-56.31, -60.12, 15.94, -15.94, 0.00]
[0.69, -1.74, 1.03] -> [-68.37, -45.77, 86.63, -86.63, 0.00]
[1.72, -0.87, 0.94] -> [-26.83, -46.20, 91.16, -91.16, 0.00]
[-1.99, 0.66, 0.27] -> [161.65, -49.88, 118.64, -118.64, 0.00]
[0.59, -0.4, 0.44] -> [-34.14, -116.43, 23.45, -23.45, 0.00]
[-1.06, -1.74, 0.67] -> [-121.35, -47.76, 102.89, -102.89, 0.00]
[-0.8, -0.58, 0.97] -> [-144.06, -77.60, 28.28, -28.28, 0.00]
[0.36, -0.49, -1.08] -> [-53.70, -107.24, 112.92, -112.92, 0.00]
[-1.04, 1.46, 1.69] -> [125.46, -23.68, 90.53, -90.53, 0.00]
[-0.57, -1.17, 1.41] -> [-115.97, -46.90, 51.22, -51.22, 0.00]
[1.8, -0.89, -0.38] -> [-26.31, -48.98, 151.05, -151.05, 0.00]
[0.25, 1.18, -1.01] -> [78.04, -81.80, 134.46, -134.46, 0.00]
[-0.72, -1.35, -0.52] -> [-118.07, -78.88, 111.86, -111.86, 0.00]
[-0.04, 0.01, -0.57] -> [165.96, -146.13, 64.72, -64.72, 0.00]
[-0.85, -1.29, 0.77] -> [-123.38, -66.40, 64.14, -64.14, 0.00]
[0.91, -0.52, 1.25] -> [-29.74, -59.80, 33.57, -33.57, 0.00]
[1.22, -1.58, 0.94] -> [-52.33, -43.26, 96.93, -96.93, 0.00]
[1.21, -1.4, -0.36] -> [-49.16, -62.39, 127.85, -127.85, 0.00]
[-1.04, -0.12, 1.72] -> [-173.42, -32.82, 45.32, -45.32, 0.00]
[1.66, 1.12, -0.46] -> [34.01, -44.56, 163.08, -163.08, 0.00]
[0.6, 0.8, 1.4] -> [53.13, -51.43, 33.54, -33.54, 0.00]
[-0.65, -1.0, -0.14] -> [-123.02, -98.61, 70.19, -70.19, 0.00]
[-0.73, -1.14, 0.6] -> [-122.63, -79.35, 54.23, -54.23, 0.00]
[-1.36, 0.98, 0.06] -> [144.22, -73.97, 90.62, -90.62, 0.00]
[-0.57, -0.34, -0.43] -> [-149.18, -122.54, 65.13, -65.13, 0.00]
